Najongs/Auto_Needle_Insertion_System/trajectory_20250926_153710_output_df.csv
timestamp,TargetJointPos_0,TargetJointPos_1,TargetJointPos_2,TargetJointPos_3,TargetJointPos_4,TargetJointPos_5,JointPos_0,JointPos_1,JointPos_2,JointPos_3,JointPos_4,JointPos_5
     1200512000,         0,         0,         0,         0,         0,         0,         0,         0,         0,         0,         0,         0
     1200522000,   3.1e-05,  0.000125,  -4.5e-05,     3e-06,   6.3e-05,    -6e-06,         0,         0,         0,         0,         0,         0
     1200532000,  0.000166,   0.00068, -0.000243,   1.5e-05,   0.00034,  -3.2e-05,         0,  0.000259,         0,         0,         0,         0
     1200542000,  0.000436,  0.001791, -0.000639,     4e-05,  0.000895,  -8.4e-05,         0,  0.001034, -0.000259,         0,         0,         0
     1200552000,  0.000866,  0.003556, -0.001269,   7.9e-05,  0.001777, -0.000167,  0.000259,   0.00181, -0.000517,         0,  0.000517,         0
     1200562000,  0.001474,   0.00605, -0.002159,  0.000135,  0.003023, -0.000285,  0.000517,  0.003621, -0.001034,         0,  0.001034,         0
     1200572000,  0.002274,  0.009335, -0.003331,  0.000208,  0.004665, -0.000439,  0.000517,  0.006207,  -0.00181,         0,  0.002069,         0
     1200582000,   0.00328,  0.013462, -0.004803,  0.000299,  0.006727, -0.000633,  0.001034,  0.009569, -0.002845,         0,  0.003103, -0.000862
     1200592000,    0.0045,  0.018471,  -0.00659,  0.000411,   0.00923, -0.000869,  0.001552,  0.014224, -0.003879,         0,  0.004655, -0.000862
     1200602000,  0.005944,  0.024396, -0.008704,  0.000543,  0.012191, -0.001148,  0.002328,  0.019397,  -0.00569,         0,  0.006724,         0
     1200612000,  0.007618,  0.031269, -0.011156,  0.000696,  0.015625, -0.001471,  0.003103,  0.026121, -0.007759,  0.000517,  0.009828, -0.000862
     1200622000,  0.009528,  0.039107, -0.013952,   0.00087,  0.019542,  -0.00184,  0.004397,  0.034138, -0.010603,  0.000517,  0.012931, -0.000862
     1200632000,   0.01167,  0.047901, -0.017089,  0.001066,  0.023937, -0.002254,  0.006207,  0.043966, -0.013448,  0.000517,  0.017586, -0.000862
     1200642000,  0.014038,   0.05762, -0.020557,  0.001282,  0.028793, -0.002711,  0.008276,  0.054569, -0.017069,  0.000517,  0.023276, -0.000862
     1200652000,  0.016624,  0.068233, -0.024343,  0.001518,  0.034097, -0.003211,  0.010862,  0.066207,  -0.02069,  0.001034,  0.029483, -0.000862
     1200662000,  0.019418,    0.0797, -0.028434,  0.001773,  0.039827, -0.003751,  0.013707,  0.078103, -0.025086,  0.001034,  0.036724, -0.001724
     1200672000,  0.022408,  0.091975, -0.032814,  0.002046,  0.045961, -0.004328,   0.01681,  0.090259, -0.029741,  0.001552,  0.044483, -0.001724
     1200682000,  0.025581,  0.104998,  -0.03746,  0.002336,  0.052469, -0.004941,  0.020172,  0.102931, -0.034655,  0.001552,   0.05069, -0.002586
     1200692000,   0.02892,    0.1187, -0.042348,  0.002641,  0.059316, -0.005586,  0.024052,  0.116897, -0.039828,  0.001552,  0.056897, -0.002586
     1200702000,  0.032401,   0.13299, -0.047446,  0.002958,  0.066457, -0.006258,  0.027931,  0.131897, -0.045259,  0.002069,  0.064655, -0.003448
     1200712000,  0.035998,  0.147753, -0.052714,  0.003287,  0.073834, -0.006953,  0.032069,  0.147155,  -0.05069,  0.002586,  0.072414,  -0.00431
     1200722000,  0.039652,   0.16275, -0.058064,   0.00362,  0.081328, -0.007659,  0.036207,  0.161897, -0.056121,  0.002586,  0.080172,  -0.00431
     1200732000,  0.043306,   0.17775, -0.063415,  0.003954,  0.088824, -0.008365,  0.040345,  0.176121, -0.061293,  0.003103,  0.087414, -0.005172
     1200742000,  0.046961,   0.19275, -0.068767,  0.004288,   0.09632,  -0.00907,  0.044483,  0.190862, -0.066724,  0.003621,  0.095172, -0.006034
     1200752000,  0.050615,   0.20775, -0.074118,  0.004621,  0.103815, -0.009776,  0.048621,  0.206121, -0.071897,  0.003621,  0.102931, -0.006897
     1200762000,   0.05427,   0.22275,  -0.07947,  0.004955,  0.111311, -0.010482,  0.052241,  0.221638, -0.077328,  0.004138,  0.111207, -0.007759
     1200772000,  0.057924,   0.23775, -0.084821,  0.005289,  0.118807, -0.011188,  0.055862,  0.236379,   -0.0825,  0.004655,  0.118966, -0.008621
     1200782000,  0.061579,   0.25275, -0.090173,  0.005622,  0.126302, -0.011894,  0.059483,  0.250603, -0.088448,  0.005172,   0.12569, -0.009483
     1200792000,  0.065233,   0.26775, -0.095525,  0.005956,  0.133798,   -0.0126,  0.063103,  0.265345, -0.094138,   0.00569,  0.133966, -0.009483
     1200802000,  0.068888,   0.28275, -0.100876,   0.00629,  0.141294, -0.013306,  0.066724,  0.281121, -0.100086,   0.00569,  0.141724, -0.011207
     1200812000,  0.072542,   0.29775, -0.106228,  0.006624,   0.14879, -0.014012,  0.070086,  0.296897, -0.106293,  0.006207,  0.149483, -0.012069
     1200822000,  0.076197,   0.31275, -0.111579,  0.006957,  0.156285, -0.014717,  0.073707,  0.311897, -0.112241,  0.006724,  0.156724, -0.013793
     1200832000,  0.079852,   0.32775, -0.116931,  0.007291,  0.163781, -0.015423,  0.077069,  0.326638, -0.117931,  0.007241,  0.164483, -0.014655
     1200842000,  0.083506,   0.34275, -0.122282,  0.007625,  0.171277, -0.016129,   0.08069,  0.341638, -0.123621,  0.007241,  0.171724, -0.014655
     1200852000,  0.087161,   0.35775, -0.127634,  0.007958,  0.178772, -0.016835,   0.08431,  0.357155, -0.129052,  0.007759,  0.179483, -0.015517
     1200862000,  0.090815,   0.37275, -0.132985,  0.008292,  0.186268, -0.017541,  0.087931,  0.372931, -0.134224,  0.008276,  0.186724, -0.016379
     1200872000,   0.09447,   0.38775, -0.138337,  0.008626,  0.193764, -0.018247,   0.09181,  0.387931, -0.139138,  0.008276,  0.194483, -0.017241
     1200882000,  0.098124,   0.40275, -0.143688,  0.008959,  0.201259, -0.018953,   0.09569,  0.402414, -0.144052,  0.008793,  0.201724, -0.017241
     1200892000,  0.101779,   0.41775,  -0.14904,  0.009293,  0.208755, -0.019658,  0.099828,  0.417672, -0.148966,   0.00931,  0.208966, -0.018103
     1200902000,  0.105433,   0.43275, -0.154391,  0.009627,  0.216251, -0.020364,  0.103966,   0.43319, -0.154138,   0.00931,  0.216724, -0.018966
     1200912000,  0.109088,   0.44775, -0.159743,   0.00996,  0.223746,  -0.02107,  0.108103,  0.448707, -0.159052,   0.00931,  0.223966, -0.019828
     1200922000,  0.112742,   0.46275, -0.165094,  0.010294,  0.231242, -0.021776,  0.112241,  0.463448, -0.164224,  0.009828,  0.231724, -0.019828
     1200932000,  0.116397,   0.47775, -0.170446,  0.010628,  0.238738, -0.022482,  0.116638,   0.47819, -0.169655,  0.010345,  0.239483,  -0.02069
     1200942000,  0.120051,   0.49275, -0.175797,  0.010961,  0.246234, -0.023188,  0.120517,  0.492931, -0.175345,  0.010862,  0.246207,  -0.02069
     1200952000,  0.123706,   0.50775, -0.181149,  0.011295,  0.253729, -0.023894,  0.124655,  0.508707, -0.180776,  0.010862,  0.253966, -0.022414
     1200962000,   0.12736,   0.52275,   -0.1865,  0.011629,  0.261225,   -0.0246,  0.128276,  0.524224, -0.186466,  0.011379,   0.26069, -0.022414
     1200972000,  0.131015,   0.53775, -0.191852,  0.011962,  0.268721, -0.025305,  0.132155,  0.538966, -0.192155,  0.011897,  0.267931, -0.023276
     1200982000,   0.13467,   0.55275, -0.197203,  0.012296,  0.276216, -0.026011,  0.135517,  0.552931, -0.197586,  0.011897,  0.275172, -0.024138
     1200992000,  0.138324,   0.56775, -0.202555,   0.01263,  0.283712, -0.026717,  0.138879,  0.567414, -0.203017,  0.012414,  0.282414, -0.024138
     1201002000,  0.141979,   0.58275, -0.207906,  0.012963,  0.291208, -0.027423,  0.142241,  0.582672,  -0.20819,  0.012931,  0.290172, -0.025862
     1201012000,  0.145633,   0.59775, -0.213258,  0.013297,  0.298703, -0.028129,  0.145345,  0.597931, -0.213362,  0.012931,  0.296897, -0.025862
     1201022000,  0.149288,   0.61275, -0.218609,  0.013631,  0.306199, -0.028835,  0.148966,  0.612414, -0.218276,  0.012931,  0.305172, -0.026724
     1201032000,  0.152942,   0.62775, -0.223961,  0.013964,  0.313695, -0.029541,  0.152328,  0.626897, -0.223448,  0.013448,  0.312931, -0.027586
     1201042000,  0.156597,   0.64275, -0.229312,  0.014298,  0.321191, -0.030247,   0.15569,  0.641897, -0.228621,  0.013966,  0.320172, -0.028448
     1201052000,  0.160251,   0.65775, -0.234664,  0.014632,  0.328686, -0.030952,  0.159052,  0.657672, -0.234052,  0.013966,  0.327414,  -0.02931
     1201062000,  0.163906,   0.67275, -0.240015,  0.014965,  0.336182, -0.031658,  0.162672,  0.673448, -0.239483,  0.014483,  0.335172, -0.030172
     1201072000,   0.16756,   0.68775, -0.245367,  0.015299,  0.343678, -0.032364,  0.166552,  0.688448, -0.245172,     0.015,  0.342931, -0.030172
     1201082000,  0.171215,   0.70275, -0.250718,  0.015633,  0.351173,  -0.03307,  0.170172,  0.702672, -0.251121,     0.015,  0.349655, -0.031897
     1201092000,  0.174869,   0.71775,  -0.25607,  0.015966,  0.358669, -0.033776,  0.174052,  0.717672, -0.257069,  0.015517,  0.357931, -0.032759
     1201102000,  0.178524,   0.73275, -0.261421,    0.0163,  0.366165, -0.034482,  0.177931,   0.73319, -0.262759,  0.015517,   0.36569, -0.033621
     1201112000,  0.182178,   0.74775, -0.266773,  0.016634,   0.37366, -0.035188,   0.18181,  0.748448, -0.268448,  0.016552,  0.372414, -0.034483
     1201122000,  0.185833,   0.76275, -0.272124,  0.016968,  0.381156, -0.035893,  0.185948,  0.762931, -0.273621,  0.016552,  0.381207, -0.034483
     1201132000,  0.189488,   0.77775, -0.277476,  0.017301,  0.388652, -0.036599,  0.189828,  0.776897, -0.278793,  0.017069,  0.388966, -0.035345
     1201142000,  0.193142,   0.79275, -0.282827,  0.017635,  0.396147, -0.037305,  0.193707,  0.791638, -0.283707,  0.017069,  0.396207, -0.036207
     1201152000,  0.196797,   0.80775, -0.288179,  0.017969,  0.403643, -0.038011,  0.197586,  0.807155, -0.288621,  0.018103,  0.404483, -0.037069
     1201162000,  0.200451,   0.82275, -0.293531,  0.018302,  0.411139, -0.038717,  0.201207,  0.822931, -0.293276,  0.018103,  0.411724, -0.038793
     1201172000,  0.204106,   0.83775, -0.298882,  0.018636,  0.418635, -0.039423,  0.204828,  0.837931, -0.297931,  0.018621,  0.419483, -0.038793
     1201182000,   0.20776,   0.85275, -0.304234,   0.01897,   0.42613, -0.040129,  0.208448,  0.852155, -0.302845,  0.019138,  0.426724, -0.039655
     1201192000,  0.211415,   0.86775, -0.309585,  0.019303,  0.433626, -0.040835,   0.21181,  0.867155, -0.308017,  0.019138,  0.434483, -0.040517
     1201202000,  0.215069,   0.88275, -0.314937,  0.019637,  0.441122,  -0.04154,  0.215431,  0.882672,  -0.31319,  0.019655,  0.442759, -0.041379
     1201212000,  0.218724,   0.89775, -0.320288,  0.019971,  0.448617, -0.042246,  0.218793,  0.898448, -0.318362,  0.020172,      0.45, -0.042241
     1201222000,  0.222378,   0.91275,  -0.32564,  0.020304,  0.456113, -0.042952,  0.222155,  0.913448, -0.324052,  0.020172,  0.457759, -0.043103
     1201232000,  0.226033,   0.92775, -0.330991,  0.020638,  0.463609, -0.043658,  0.225517,  0.927931, -0.329741,   0.02069,  0.465517, -0.043966
     1201242000,  0.229687,   0.94275, -0.336343,  0.020972,  0.471104, -0.044364,  0.228879,  0.942931, -0.335431,  0.021207,  0.472241, -0.043966
     1201252000,  0.233342,   0.95775, -0.341694,  0.021305,    0.4786,  -0.04507,    0.2325,  0.958448, -0.341379,  0.021207,      0.48, -0.044828
     1201262000,  0.236996,   0.97275, -0.347046,  0.021639,  0.486096, -0.045776,  0.236121,  0.973966,  -0.34681,  0.021724,  0.488793,  -0.04569
     1201272000,  0.240651,   0.98775, -0.352397,  0.021973,  0.493591, -0.046482,  0.239741,  0.988966,   -0.3525,  0.021724,  0.495517,  -0.04569
     1201282000,  0.244306,   1.00275, -0.357749,  0.022306,  0.501087, -0.047187,  0.243621,  1.003707, -0.357931,  0.022241,  0.501724, -0.047414
     1201292000,   0.24796,   1.01775,   -0.3631,   0.02264,  0.508583, -0.047893,    0.2475,  1.018707, -0.363103,  0.022241,  0.509483, -0.047414
     1201302000,  0.251615,   1.03275, -0.368452,  0.022974,  0.516079, -0.048599,  0.251379,  1.034224, -0.368017,  0.022759,  0.517759, -0.048276
     1201312000,  0.255269,   1.04775, -0.373803,  0.023307,  0.523574, -0.049305,  0.255517,  1.049224, -0.373448,  0.023276,  0.525517, -0.049138
     1201322000,  0.258924,   1.06275, -0.379155,  0.023641,   0.53107, -0.050011,  0.259397,  1.063707, -0.378621,  0.023793,  0.532241, -0.049138
     1201332000,  0.262578,   1.07775, -0.384506,  0.023975,  0.538566, -0.050717,  0.263534,  1.077931,  -0.38431,  0.023793,  0.539483, -0.050862
     1201342000,  0.266233,   1.09275, -0.389858,  0.024308,  0.546061, -0.051423,  0.267414,  1.092414,     -0.39,   0.02431,  0.547241, -0.050862
     1201352000,  0.269887,   1.10775, -0.395209,  0.024642,  0.553557, -0.052129,  0.271293,   1.10819,  -0.39569,  0.024828,  0.554483, -0.051724
     1201362000,  0.273542,   1.12275, -0.400561,  0.024976,  0.561053, -0.052834,  0.274914,  1.123448, -0.401897,  0.024828,  0.561207, -0.052586
     1201372000,  0.277196,   1.13775, -0.405912,  0.025309,  0.568548,  -0.05354,  0.278534,  1.138448, -0.407586,  0.025345,  0.568966, -0.053448
     1201382000,  0.280851,   1.15275, -0.411264,  0.025643,  0.576044, -0.054246,  0.281897,  1.152672, -0.413534,  0.025345,  0.576724, -0.053448
     1201392000,  0.284505,   1.16775, -0.416615,  0.025977,   0.58354, -0.054952,  0.285517,  1.167414, -0.418966,  0.025862,  0.583966, -0.055172
     1201402000,   0.28816,   1.18275, -0.421967,   0.02631,  0.591036, -0.055658,  0.288879,  1.182672, -0.424397,  0.026379,  0.590172, -0.055172
     1201412000,  0.291814,   1.19775, -0.427318,  0.026644,  0.598531, -0.056364,  0.292241,   1.19819, -0.429569,  0.026379,  0.598966, -0.056034
     1201422000,  0.295469,   1.21275,  -0.43267,  0.026978,  0.606027,  -0.05707,  0.295603,   1.21319, -0.434224,  0.026897,   0.60569, -0.056897
     1201432000,  0.299124,   1.22775, -0.438021,  0.027312,  0.613523, -0.057775,  0.298707,  1.227672, -0.438879,  0.027414,  0.612931, -0.057759
     1201442000,  0.302778,   1.24275, -0.443373,  0.027645,  0.621018, -0.058481,  0.302069,  1.242414, -0.444052,  0.027414,   0.62069, -0.057759
     1201452000,  0.306433,   1.25775, -0.448724,  0.027979,  0.628514, -0.059187,   0.30569,  1.258448, -0.448966,  0.027931,  0.628966, -0.059483
     1201462000,  0.310087,   1.27275, -0.454076,  0.028313,   0.63601, -0.059893,   0.30931,  1.274224, -0.453621,  0.028448,   0.63569, -0.059483
     1201472000,  0.313742,   1.28775, -0.459427,  0.028646,  0.643505, -0.060599,  0.312931,  1.289224, -0.458534,  0.028448,  0.642414, -0.060345
     1201482000,  0.317396,   1.30275, -0.464779,   0.02898,  0.651001, -0.061305,  0.316552,  1.303448, -0.463966,  0.028966,  0.649655, -0.061207
     1201492000,  0.321051,   1.31775,  -0.47013,  0.029314,  0.658497, -0.062011,  0.320172,   1.31819, -0.469397,  0.029483,  0.657414, -0.062069
     1201502000,  0.324705,   1.33275, -0.475482,  0.029647,  0.665992, -0.062717,  0.324052,  1.333707, -0.475086,      0.03,  0.666207, -0.062931
     1201512000,   0.32836,   1.34775, -0.480833,  0.029981,  0.673488, -0.063422,  0.327931,  1.349483, -0.480776,      0.03,  0.672931, -0.063793
     1201522000,  0.332014,   1.36275, -0.486185,  0.030315,  0.680984, -0.064128,  0.332069,  1.364224, -0.486207,      0.03,  0.680172, -0.064655
     1201532000,  0.335669,   1.37775, -0.491537,  0.030648,   0.68848, -0.064834,  0.336207,   1.37819, -0.491897,  0.030517,  0.688448, -0.064655
     1201542000,  0.339323,   1.39275, -0.496888,  0.030982,  0.695975,  -0.06554,  0.340345,  1.392931, -0.497328,  0.031034,  0.696207, -0.065517
     1201552000,  0.342978,   1.40775,  -0.50224,  0.031316,  0.703471, -0.066246,  0.344483,   1.40819,   -0.5025,  0.031552,  0.702931, -0.066379
     1201562000,  0.346632,   1.42275, -0.507591,  0.031649,  0.710967, -0.066952,  0.348362,  1.423966, -0.507672,  0.031552,  0.710172, -0.067241
     1201572000,  0.350287,   1.43775, -0.512943,  0.031983,  0.718462, -0.067658,  0.351983,  1.438707, -0.512586,  0.032069,  0.717931, -0.067241
     1201582000,  0.353942,   1.45275, -0.518294,  0.032317,  0.725958, -0.068364,  0.355603,  1.452931, -0.517759,  0.032586,  0.726207, -0.068103
     1201592000,  0.357596,   1.46775, -0.523646,   0.03265,  0.733454, -0.069069,  0.358966,  1.467672, -0.522672,  0.032586,  0.733448, -0.068966
     1201602000,  0.361251,   1.48275, -0.528997,  0.032984,  0.740949, -0.069775,  0.362586,   1.48319, -0.527586,  0.033103,   0.74069, -0.068966
     1201612000,  0.364905,   1.49775, -0.534349,  0.033318,  0.748445, -0.070481,  0.365948,  1.498707, -0.532759,  0.033103,  0.748448,  -0.07069
     1201622000,   0.36856,   1.51275,   -0.5397,  0.033651,  0.755941, -0.071187,  0.369052,  1.513448,  -0.53819,  0.033621,   0.75569,  -0.07069
     1201632000,  0.372214,   1.52775, -0.545052,  0.033985,  0.763436, -0.071893,  0.372414,  1.527414, -0.543879,  0.034138,  0.763966, -0.071552
     1201642000,  0.375869,   1.54275, -0.550403,  0.034319,  0.770932, -0.072599,  0.375776,  1.541897, -0.549569,  0.034655,   0.77069, -0.072414
     1201652000,  0.379523,   1.55775, -0.555755,  0.034652,  0.778428, -0.073305,  0.379397,  1.557155, -0.555776,  0.034655,  0.777931, -0.073276
     1201662000,  0.383178,   1.57275, -0.561106,  0.034986,  0.785924,  -0.07401,  0.382759,  1.572414, -0.561466,  0.034655,   0.78569, -0.073276
     1201672000,  0.386832,   1.58775, -0.566458,   0.03532,  0.793419, -0.074716,  0.386121,  1.587414, -0.567155,   0.03569,  0.793448,    -0.075
     1201682000,  0.390487,   1.60275, -0.571809,  0.035653,  0.800915, -0.075422,  0.389741,  1.602155, -0.572586,   0.03569,  0.801207,    -0.075
     1201692000,  0.394141,   1.61775, -0.577161,  0.035987,  0.808411, -0.076128,  0.393362,  1.617155, -0.578017,  0.036207,  0.807931, -0.075862
     1201702000,  0.397796,   1.63275, -0.582512,  0.036321,  0.815906, -0.076834,  0.396983,  1.632931, -0.582931,  0.036207,  0.814655, -0.076724
     1201712000,   0.40145,   1.64775, -0.587864,  0.036654,  0.823402,  -0.07754,  0.400862,  1.648707, -0.588103,  0.036724,  0.822931, -0.077586
     1201722000,  0.405105,   1.66275, -0.593215,  0.036988,  0.830898, -0.078246,  0.404741,  1.663707, -0.593017,  0.037241,   0.83069, -0.078448
     1201732000,   0.40876,   1.67775, -0.598567,  0.037322,  0.838393, -0.078952,  0.408621,  1.677931, -0.597931,  0.037241,  0.838448,  -0.07931
     1201742000,  0.412414,   1.69275, -0.603918,  0.037656,  0.845889, -0.079657,  0.412759,  1.692672, -0.602845,  0.037241,  0.844655,  -0.07931
     1201752000,  0.416069,   1.70775,  -0.60927,  0.037989,  0.853385, -0.080363,  0.416638,  1.707672, -0.608017,  0.038276,  0.852414, -0.080172
     1201762000,  0.419723,   1.72275, -0.614621,  0.038323,  0.860881, -0.081069,  0.420517,  1.723448, -0.613707,  0.038276,   0.86069, -0.081034
     1201772000,  0.423378,   1.73775, -0.619973,  0.038657,  0.868376, -0.081775,  0.423879,  1.738448, -0.619138,  0.038276,  0.867931, -0.081897
     1201782000,  0.427032,   1.75275, -0.625324,   0.03899,  0.875872, -0.082481,    0.4275,  1.752931, -0.624828,  0.038793,  0.875172, -0.082759
     1201792000,  0.430687,   1.76775, -0.630676,  0.039324,  0.883368, -0.083187,  0.431121,  1.767155, -0.630776,   0.03931,  0.882414, -0.083621
     1201802000,  0.434341,   1.78275, -0.636027,  0.039658,  0.890863, -0.083893,  0.434483,  1.782155, -0.636466,   0.03931,  0.891207, -0.084483
     1201812000,  0.437996,   1.79775, -0.641379,  0.039991,  0.898359, -0.084599,  0.437845,  1.797672, -0.642155,  0.039828,  0.897931, -0.084483
     1201822000,   0.44165,   1.81275,  -0.64673,  0.040325,  0.905855, -0.085304,  0.441207,  1.812672, -0.647845,  0.040345,  0.904655, -0.085345
     1201832000,  0.445305,   1.82775, -0.652082,  0.040659,   0.91335,  -0.08601,  0.444569,  1.827414, -0.653276,  0.040345,  0.912931, -0.086207
     1201842000,  0.448959,   1.84275, -0.657433,  0.040992,  0.920846, -0.086716,  0.447672,  1.842155, -0.658448,  0.040862,  0.919655, -0.086207
     1201852000,  0.452614,   1.85775, -0.662785,  0.041326,  0.928342, -0.087422,  0.451034,  1.857672, -0.663621,  0.041379,  0.926897, -0.087931
     1201862000,  0.456268,   1.87275, -0.668136,   0.04166,  0.935837, -0.088128,  0.454655,  1.873448, -0.668534,  0.041379,   0.93569, -0.087931
     1201872000,  0.459923,   1.88775, -0.673488,  0.041993,  0.943333, -0.088834,  0.458017,  1.888448, -0.673448,  0.041897,  0.942931, -0.088793
     1201882000,  0.463578,   1.90275, -0.678839,  0.042327,  0.950829,  -0.08954,  0.461638,  1.902931, -0.678879,  0.042414,  0.950172, -0.089655
     1201892000,  0.467232,   1.91775, -0.684191,  0.042661,  0.958325, -0.090245,  0.465259,  1.917672,  -0.68431,  0.042931,  0.958448, -0.089655
     1201902000,  0.470887,   1.93275, -0.689542,  0.042994,   0.96582, -0.090951,  0.469138,   1.93319, -0.689741,  0.042931,  0.966207, -0.091379
     1201912000,  0.474541,   1.94775, -0.694894,  0.043328,  0.973316, -0.091657,  0.472759,  1.948966,  -0.69569,  0.043448,  0.973448, -0.091379
     1201922000,  0.478196,   1.96275, -0.700246,  0.043662,  0.980812, -0.092363,  0.476638,  1.963966, -0.701379,  0.043966,  0.981207, -0.092241
     1201932000,   0.48185,   1.97775, -0.705597,  0.043995,  0.988307, -0.093069,  0.480776,  1.977931, -0.707328,  0.043966,  0.988966, -0.093103
     1201942000,  0.485505,   1.99275, -0.710949,  0.044329,  0.995803, -0.093775,  0.484914,  1.992155, -0.713276,  0.043966,  0.996207, -0.093103
     1201952000,  0.489159,   2.00775,   -0.7163,  0.044663,  1.003299, -0.094481,  0.488793,  2.007155, -0.718707,  0.044483,  1.003448, -0.094828
     1201962000,  0.492814,   2.02275, -0.721652,  0.044996,  1.010794, -0.095187,  0.492931,  2.022672, -0.723879,     0.045,  1.011724, -0.094828
     1201972000,  0.496468,   2.03775, -0.727003,   0.04533,   1.01829, -0.095892,   0.49681,  2.037672, -0.729052,     0.045,  1.018966,  -0.09569
     1201982000,  0.500123,   2.05275, -0.732355,  0.045664,  1.025786, -0.096598,  0.500948,  2.051638, -0.733966,  0.045517,  1.027241, -0.096552
     1201992000,  0.503777,   2.06775, -0.737706,  0.045997,  1.033281, -0.097304,  0.504569,  2.066379, -0.738621,  0.046034,  1.033966, -0.097414
     1202002000,  0.507432,   2.08275, -0.743058,  0.046331,  1.040777,  -0.09801,  0.508448,  2.081897, -0.743276,  0.046034,  1.041724, -0.097414
     1202012000,  0.511086,   2.09775, -0.748409,  0.046665,  1.048273, -0.098716,  0.512069,  2.097672,  -0.74819,  0.046552,  1.049483, -0.099138
     1202022000,  0.514741,   2.11275, -0.753761,  0.046999,  1.055769, -0.099422,  0.515431,  2.112931, -0.752845,  0.047069,  1.057241, -0.099138
     1202032000,  0.518396,   2.12775, -0.759112,  0.047332,  1.063264, -0.100128,  0.519052,  2.127155, -0.758276,  0.047586,     1.065,      -0.1
     1202042000,   0.52205,   2.14275, -0.764464,  0.047666,   1.07076, -0.100834,  0.522155,  2.141638, -0.763448,  0.047586,  1.072241, -0.100862
     1202052000,  0.525705,   2.15775, -0.769815,     0.048,  1.078256, -0.101539,  0.525517,  2.157155, -0.768879,  0.048103,      1.08, -0.101724
     1202062000,  0.529359,   2.17275, -0.775167,  0.048333,  1.085751, -0.102245,  0.529138,   2.17319,  -0.77431,  0.048621,  1.087759, -0.101724
     1202072000,  0.533014,   2.18775, -0.780518,  0.048667,  1.093247, -0.102951,    0.5325,   2.18819,     -0.78,  0.048621,  1.094483, -0.103448
     1202082000,  0.536668,   2.20275,  -0.78587,  0.049001,  1.100743, -0.103657,  0.535862,  2.202931, -0.785431,  0.049138,  1.102241, -0.103448
     1202092000,  0.540323,   2.21775, -0.791221,  0.049334,  1.108238, -0.104363,  0.539483,  2.217672, -0.791121,  0.049655,      1.11,  -0.10431
     1202102000,  0.543977,   2.23275, -0.796573,  0.049668,  1.115734, -0.105069,  0.543362,   2.23319, -0.796552,  0.049655,  1.116724, -0.105172
     1202112000,  0.547632,   2.24775, -0.801924,  0.050002,   1.12323, -0.105775,  0.546983,  2.248966, -0.801466,  0.050172,  1.123966, -0.106034
     1202122000,  0.551286,   2.26275, -0.807276,  0.050335,  1.130726,  -0.10648,  0.550862,  2.263707, -0.806897,   0.05069,  1.131724, -0.106897
     1202132000,  0.554941,   2.27775, -0.812627,  0.050669,  1.138221, -0.107186,     0.555,  2.278448, -0.812069,   0.05069,  1.138966, -0.106897
     1202142000,  0.558595,   2.29275, -0.817979,  0.051003,  1.145717, -0.107892,  0.558879,   2.29319, -0.816983,   0.05069,  1.146207, -0.107759
     1202152000,   0.56225,   2.30775,  -0.82333,  0.051336,  1.153213, -0.108598,  0.563017,  2.308707, -0.822155,  0.051724,  1.154483, -0.108621
     1202162000,  0.565904,   2.32275, -0.828682,   0.05167,  1.160708, -0.109304,  0.567155,  2.324483, -0.827328,  0.051724,  1.161724, -0.109483
     1202172000,  0.569559,   2.33775, -0.834033,  0.052004,  1.168204,  -0.11001,  0.571034,  2.339224, -0.832759,  0.051724,  1.169483, -0.109483
     1202182000,  0.573214,   2.35275, -0.839385,  0.052337,    1.1757, -0.110716,  0.574914,  2.353448, -0.838448,  0.052759,  1.176724, -0.110345
     1202192000,  0.576868,   2.36775, -0.844736,  0.052671,  1.183195, -0.111422,  0.578534,  2.367414, -0.844397,  0.052759,  1.183448, -0.111207
     1202202000,  0.580523,   2.38275, -0.850088,  0.053005,  1.190691, -0.112127,  0.582155,  2.382414, -0.850086,  0.053276,  1.191724, -0.112069
     1202212000,  0.584177,   2.39775, -0.855439,  0.053338,  1.198187, -0.112833,  0.585517,  2.397672, -0.856034,  0.053793,  1.198448, -0.112069
     1202222000,  0.587832,   2.41275, -0.860791,  0.053672,  1.205682, -0.113539,  0.588879,  2.412414, -0.861983,  0.053793,  1.205172, -0.113793
     1202232000,  0.591486,   2.42775, -0.866142,  0.054006,  1.213178, -0.114245,  0.592241,  2.426897, -0.867672,  0.053793,  1.212931, -0.113793
     1202242000,  0.595141,   2.44275, -0.871494,  0.054339,  1.220674, -0.114951,  0.595862,  2.441638, -0.873103,   0.05431,  1.219655, -0.114655
     1202252000,  0.598795,   2.45775, -0.876845,  0.054673,   1.22817, -0.115657,  0.598966,  2.457414, -0.878534,  0.054828,  1.226897, -0.115517
     1202262000,   0.60245,   2.47275, -0.882197,  0.055007,  1.235665, -0.116363,  0.602328,   2.47319, -0.883448,  0.054828,  1.234655, -0.116379
     1202272000,  0.606104,   2.48775, -0.887548,   0.05534,  1.243161, -0.117069,  0.605948,   2.48819, -0.888103,  0.055345,  1.242414, -0.116379
     1202282000,  0.609759,   2.50275,   -0.8929,  0.055674,  1.250657, -0.117774,   0.60931,  2.502672, -0.892759,  0.055862,  1.250172, -0.118103
     1202292000,  0.613413,   2.51775, -0.898252,  0.056008,  1.258152,  -0.11848,  0.612931,  2.517672, -0.897672,  0.055862,  1.256897, -0.118966
     1202302000,  0.617068,   2.53275, -0.903603,  0.056341,  1.265648, -0.119186,  0.616552,   2.53319, -0.902586,  0.055862,  1.264655, -0.118966
     1202312000,  0.620722,   2.54775, -0.908955,  0.056675,  1.273144, -0.119892,  0.620431,  2.548448,   -0.9075,  0.056897,  1.272414, -0.119828
     1202322000,  0.624377,   2.56275, -0.914306,  0.057009,  1.280639, -0.120598,   0.62431,   2.56319, -0.912672,  0.056897,  1.280172,  -0.12069
     1202332000,  0.628032,   2.57775, -0.919658,  0.057343,  1.288135, -0.121304,   0.62819,  2.577414, -0.918103,  0.056897,  1.288448,  -0.12069
     1202342000,  0.631686,   2.59275, -0.925009,  0.057676,  1.295631,  -0.12201,  0.632328,  2.591897, -0.923793,  0.057414,  1.295172, -0.121552
     1202352000,  0.635341,   2.60775, -0.930361,   0.05801,  1.303127, -0.122716,  0.636207,  2.607414, -0.929483,  0.057931,  1.302414, -0.122414
     1202362000,  0.638995,   2.62275, -0.935712,  0.058344,  1.310622, -0.123421,  0.640086,  2.623448, -0.935172,  0.058448,   1.31069, -0.123276
     1202372000,   0.64265,   2.63775, -0.941064,  0.058677,  1.318118, -0.124127,  0.643707,  2.638448, -0.940862,  0.058966,  1.318448, -0.124138
     1202382000,  0.646304,   2.65275, -0.946415,  0.059011,  1.325614, -0.124833,  0.647586,  2.652672, -0.946293,  0.058966,  1.325172, -0.124138
     1202392000,  0.649959,   2.66775, -0.951767,  0.059345,  1.333109, -0.125539,  0.651207,  2.667414, -0.951983,  0.058966,  1.333448, -0.125862
     1202402000,  0.653613,   2.68275, -0.957118,  0.059678,  1.340605, -0.126245,  0.654569,   2.68319, -0.957155,  0.059483,  1.341207, -0.126724
     1202412000,  0.657268,   2.69775,  -0.96247,  0.060012,  1.348101, -0.126951,   0.65819,  2.698707, -0.962069,      0.06,  1.347931, -0.126724
     1202422000,  0.660922,   2.71275, -0.967821,  0.060346,  1.355596, -0.127657,  0.661552,  2.713707, -0.966983,  0.060517,   1.35569, -0.127586
     1202432000,  0.664577,   2.72775, -0.973173,  0.060679,  1.363092, -0.128362,  0.664655,  2.727931, -0.972155,  0.060517,  1.363966, -0.128448
     1202442000,  0.668231,   2.74275, -0.978524,  0.061013,  1.370588, -0.129068,  0.668017,  2.742414, -0.977586,  0.061034,   1.37069, -0.128448
     1202452000,  0.671886,   2.75775, -0.983876,  0.061347,  1.378083, -0.129774,  0.671121,   2.75819, -0.983017,  0.061552,  1.378448, -0.130172
     1202462000,   0.67554,   2.77275, -0.989227,   0.06168,  1.385579,  -0.13048,  0.674483,  2.773966, -0.988707,  0.061552,  1.385172, -0.130172
     1202472000,  0.679195,   2.78775, -0.994579,  0.062014,  1.393075, -0.131186,  0.677845,  2.788966, -0.994397,  0.061552,  1.393966, -0.131034
     1202482000,   0.68285,   2.80275,  -0.99993,  0.062348,  1.400571, -0.131892,  0.681466,  2.803966, -1.000345,  0.062069,  1.401724, -0.131897
     1202492000,  0.686504,   2.81775, -1.005282,  0.062681,  1.408066, -0.132598,  0.684828,  2.818966, -1.006293,  0.062586,  1.407931, -0.132759
     1202502000,  0.690159,   2.83275, -1.010633,  0.063015,  1.415562, -0.133304,   0.68819,  2.834224, -1.012241,  0.062586,   1.41569, -0.133621
     1202512000,  0.693813,   2.84775, -1.015985,  0.063349,  1.423058, -0.134009,   0.69181,  2.849483, -1.017672,  0.063103,  1.423966, -0.134483
     1202522000,  0.697468,   2.86275, -1.021336,  0.063682,  1.430553, -0.134715,   0.69569,  2.864224, -1.023103,  0.063103,  1.431207, -0.134483
     1202532000,  0.701122,   2.87775, -1.026688,  0.064016,  1.438049, -0.135421,  0.699569,   2.87819, -1.028276,  0.063621,  1.438448, -0.135345
     1202542000,  0.704777,   2.89275, -1.032039,   0.06435,  1.445545, -0.136127,  0.703707,  2.892672, -1.033448,  0.064138,  1.446207, -0.136207
     1202552000,  0.708431,   2.90775, -1.037391,  0.064683,   1.45304, -0.136833,  0.707586,   2.90819, -1.038621,  0.064138,  1.452931, -0.136207
     1202562000,  0.712086,   2.92275, -1.042742,  0.065017,  1.460536, -0.137539,  0.711724,  2.923966, -1.043534,  0.065172,  1.460172, -0.137931
     1202572000,   0.71574,   2.93775, -1.048094,  0.065351,  1.468032, -0.138245,  0.715862,  2.938707, -1.048448,  0.065172,  1.467931, -0.137931
     1202582000,  0.719395,   2.95275, -1.053445,  0.065684,  1.475527, -0.138951,  0.719741,  2.952672, -1.053621,   0.06569,  1.475172, -0.138793
     1202592000,  0.723049,   2.96775, -1.058797,  0.066018,  1.483023, -0.139656,  0.723621,  2.966897, -1.058793,  0.066207,  1.482931, -0.139655
     1202602000,  0.726704,   2.98275, -1.064148,  0.066352,  1.490519, -0.140362,    0.7275,  2.982155, -1.064224,  0.066207,  1.490172, -0.140517
     1202612000,  0.730358,   2.99775,   -1.0695,  0.066685,  1.498015, -0.141068,  0.731379,  2.997672, -1.069655,  0.066724,  1.496897, -0.140517
     1202622000,  0.734013,   3.01275, -1.074851,  0.067019,   1.50551, -0.141774,     0.735,  3.012672, -1.075345,  0.067241,  1.504138, -0.142241
     1202632000,  0.737668,   3.02775, -1.080203,  0.067353,  1.513006,  -0.14248,  0.738362,  3.027414, -1.081034,  0.067241,  1.512931, -0.142241
     1202642000,  0.741322,   3.04275, -1.085554,  0.067687,  1.520502, -0.143186,  0.741983,  3.042414, -1.086724,  0.067241,  1.520172, -0.143103
     1202652000,  0.744977,   3.05775, -1.090906,   0.06802,  1.527997, -0.143892,  0.745345,   3.05819, -1.091897,  0.068276,  1.526379, -0.143966
     1202662000,  0.748631,   3.07275, -1.096258,  0.068354,  1.535493, -0.144597,  0.748707,  3.073966, -1.097328,  0.068276,  1.534138, -0.143966
     1202672000,  0.752286,   3.08775, -1.101609,  0.068688,  1.542989, -0.145303,  0.752069,  3.088966,   -1.1025,  0.068793,  1.541897,  -0.14569
     1202682000,   0.75594,   3.10275, -1.106961,  0.069021,  1.550484, -0.146009,  0.755431,  3.103448, -1.107414,   0.06931,   1.55069,  -0.14569
     1202692000,  0.759595,   3.11775, -1.112312,  0.069355,   1.55798, -0.146715,  0.759052,  3.118448, -1.112328,   0.06931,  1.557931, -0.146552
     1202702000,  0.763249,   3.13275, -1.117664,  0.069689,  1.565476, -0.147421,  0.762414,  3.133966, -1.117241,  0.069828,  1.564655, -0.147414
     1202712000,  0.766904,   3.14775, -1.123015,  0.070022,  1.572972, -0.148127,  0.766034,  3.149741, -1.122155,  0.069828,  1.572931, -0.148276
     1202722000,  0.770558,   3.16275, -1.128367,  0.070356,  1.580467, -0.148833,  0.769655,  3.164224, -1.127328,  0.070345,  1.581207, -0.148276
     1202732000,  0.774213,   3.17775, -1.133718,   0.07069,  1.587963, -0.149539,  0.773793,  3.178448,   -1.1325,  0.070862,  1.588448,     -0.15
     1202742000,  0.777867,   3.19275,  -1.13907,  0.071023,  1.595459, -0.150244,  0.777414,  3.192931,  -1.13819,  0.070862,  1.595172,     -0.15
     1202752000,  0.781522,   3.20775, -1.144421,  0.071357,  1.602954,  -0.15095,  0.781552,   3.20819, -1.143621,  0.071379,  1.603448, -0.150862
     1202762000,  0.785176,   3.22275, -1.149773,  0.071691,   1.61045, -0.151656,  0.785431,  3.223707,  -1.14931,  0.071897,  1.611207, -0.151724
     1202772000,  0.788831,   3.23775, -1.155124,  0.072024,  1.617946, -0.152362,   0.78931,  3.238707, -1.155259,  0.071897,  1.618966, -0.152586
     1202782000,  0.792486,   3.25275, -1.160476,  0.072358,  1.625441, -0.153068,  0.793448,  3.252931, -1.160948,  0.072931,  1.626207, -0.153448
     1202792000,   0.79614,   3.26775, -1.165827,  0.072692,  1.632937, -0.153774,  0.797328,  3.267672, -1.166638,  0.072931,  1.633966, -0.153448
     1202802000,  0.799795,   3.28275, -1.171179,  0.073025,  1.640433,  -0.15448,  0.800948,  3.282931, -1.172069,  0.073448,  1.641724,  -0.15431
     1202812000,  0.803449,   3.29775,  -1.17653,  0.073359,  1.647928, -0.155186,  0.804569,  3.298448,   -1.1775,  0.073448,  1.650517, -0.155172
     1202822000,  0.807104,   3.31275, -1.181882,  0.073693,  1.655424, -0.155891,   0.80819,   3.31319, -1.182414,  0.073966,  1.656724, -0.156034
     1202832000,  0.810758,   3.32775, -1.187233,  0.074026,   1.66292, -0.156597,   0.81181,  3.327155, -1.187328,  0.073966,  1.663966, -0.156897
     1202842000,  0.814413,   3.34275, -1.192585,   0.07436,  1.670416, -0.157303,  0.815172,  3.341897,   -1.1925,  0.074483,  1.671724, -0.156897
     1202852000,  0.818067,   3.35775, -1.197936,  0.074694,  1.677911, -0.158009,  0.818534,  3.357155, -1.197672,     0.075,  1.678966, -0.157759
     1202862000,  0.821722,   3.37275, -1.203288,  0.075027,  1.685407, -0.158715,  0.821897,  3.372931, -1.202586,     0.075,  1.687241, -0.158621
     1202872000,  0.825376,   3.38775, -1.208639,  0.075361,  1.692903, -0.159421,  0.825259,   3.38819, -1.207759,     0.075,  1.694483, -0.159483
     1202882000,  0.829031,   3.40275, -1.213991,  0.075695,  1.700398, -0.160127,  0.828621,  3.402414, -1.212931,  0.075517,  1.701724, -0.160345
     1202892000,  0.832685,   3.41775, -1.219342,  0.076028,  1.707894, -0.160832,  0.831983,  3.417672, -1.218621,  0.076034,  1.709483, -0.161207
     1202902000,   0.83634,   3.43275, -1.224694,  0.076362,   1.71539, -0.161538,  0.835603,   3.43319, -1.224052,  0.076552,  1.717241, -0.161207
     1202912000,  0.839994,   3.44775, -1.230045,  0.076696,  1.722885, -0.162244,  0.839224,  3.448966, -1.229741,  0.077069,  1.723448, -0.162069
     1202922000,  0.843649,   3.46275, -1.235397,   0.07703,  1.730381,  -0.16295,  0.842845,  3.463707, -1.235431,  0.077069,   1.73069, -0.162931
     1202932000,  0.847304,   3.47775, -1.240748,  0.077363,  1.737877, -0.163656,  0.846724,  3.477931, -1.240862,  0.077586,  1.739483, -0.163793
     1202942000,  0.850958,   3.49275,   -1.2461,  0.077697,  1.745372, -0.164362,  0.850345,  3.492414,  -1.24681,  0.078103,  1.747241, -0.163793
     1202952000,  0.854613,   3.50775, -1.251451,  0.078031,  1.752868, -0.165068,  0.854224,  3.507931, -1.251983,  0.078103,  1.753448, -0.165517
     1202962000,  0.858267,   3.52275, -1.256803,  0.078364,  1.760364, -0.165774,  0.858103,  3.523707, -1.257155,  0.078621,   1.76069, -0.165517
     1202972000,  0.861922,   3.53775, -1.262154,  0.078698,   1.76786, -0.166479,  0.861983,   3.53819, -1.262328,  0.079138,  1.768448, -0.166379
     1202982000,  0.865576,   3.55275, -1.267506,  0.079032,  1.775355, -0.167185,  0.865862,  3.552414,   -1.2675,  0.079138,  1.774655, -0.167241
     1202992000,  0.869231,   3.56775, -1.272857,  0.079365,  1.782851, -0.167891,  0.869741,  3.566638, -1.272672,  0.079655,  1.782931, -0.168103
     1203002000,  0.872885,   3.58275, -1.278209,  0.079699,  1.790347, -0.168597,  0.873621,  3.582155, -1.277845,  0.079655,  1.789655, -0.168103
     1203012000,   0.87654,   3.59775,  -1.28356,  0.080033,  1.797842, -0.169303,    0.8775,  3.597414, -1.283276,  0.080172,  1.796897, -0.168966
     1203022000,  0.880194,   3.61275, -1.288912,  0.080366,  1.805338, -0.170009,  0.881121,  3.612414, -1.288966,  0.080172,  1.804655,  -0.17069
     1203032000,  0.883849,   3.62775, -1.294264,    0.0807,  1.812834, -0.170715,  0.884483,  3.627414, -1.294655,   0.08069,  1.812414,  -0.17069
     1203042000,  0.887503,   3.64275, -1.299615,  0.081034,  1.820329, -0.171421,  0.888103,  3.642155, -1.300862,   0.08069,  1.820172, -0.171552
     1203052000,  0.891158,   3.65775, -1.304967,  0.081367,  1.827825, -0.172126,  0.891466,  3.657931,  -1.30681,  0.081724,  1.826897, -0.172414
     1203062000,  0.894812,   3.67275, -1.310318,  0.081701,  1.835321, -0.172832,  0.894569,  3.673448,   -1.3125,  0.081724,  1.834138, -0.173276
     1203072000,  0.898467,   3.68775,  -1.31567,  0.082035,  1.842817, -0.173538,   0.89819,  3.688448,  -1.31819,  0.082241,  1.841897, -0.174138
     1203082000,  0.902122,   3.70275, -1.321021,  0.082368,  1.850312, -0.174244,  0.901552,  3.702931, -1.323621,  0.082759,  1.848621, -0.174138
     1203092000,  0.905776,   3.71775, -1.326373,  0.082702,  1.857808,  -0.17495,  0.904655,   3.71819, -1.328793,  0.082759,  1.855862,    -0.175
     1203102000,  0.909431,   3.73275, -1.331724,  0.083036,  1.865304, -0.175656,  0.908276,  3.733707, -1.333707,  0.083276,  1.864138, -0.175862
     1203112000,  0.913085,   3.74775, -1.337076,  0.083369,  1.872799, -0.176362,  0.911897,  3.749224, -1.338362,  0.083793,  1.871897, -0.175862
     1203122000,   0.91674,   3.76275, -1.342427,  0.083703,  1.880295, -0.177067,  0.915776,  3.763707, -1.343017,  0.083793,  1.879655, -0.177586
     1203132000,  0.920394,   3.77775, -1.347779,  0.084037,  1.887791, -0.177773,  0.919397,  3.777672, -1.347672,   0.08431,  1.886379, -0.177586
     1203142000,  0.924049,   3.79275,  -1.35313,   0.08437,  1.895286, -0.178479,  0.923017,  3.791897, -1.352586,  0.084828,  1.894138, -0.178448
     1203152000,  0.927703,   3.80775, -1.358482,  0.084704,  1.902782, -0.179185,  0.926897,  3.807155,   -1.3575,  0.084828,  1.902414,  -0.17931
     1203162000,  0.931358,   3.82275, -1.363833,  0.085038,  1.910278, -0.179891,  0.931034,  3.822672, -1.362672,  0.084828,  1.909655, -0.180172
     1203172000,  0.935012,   3.83775, -1.369185,  0.085371,  1.917773, -0.180597,  0.934914,  3.837414, -1.367845,  0.085345,  1.916897, -0.180172
     1203182000,  0.938667,   3.85275, -1.374536,  0.085705,  1.925269, -0.181303,  0.939052,  3.851638, -1.373276,  0.085862,  1.925172, -0.181897
     1203192000,  0.942321,   3.86775, -1.379888,  0.086039,  1.932765, -0.182009,   0.94319,  3.866379, -1.378966,  0.086379,  1.932931, -0.181897
     1203202000,  0.945976,   3.88275, -1.385239,  0.086372,  1.940261, -0.182714,  0.947069,  3.881897, -1.384397,  0.086379,  1.940172, -0.182759
     1203212000,   0.94963,   3.89775, -1.390591,  0.086706,  1.947756,  -0.18342,  0.950948,  3.897414, -1.389828,  0.086897,  1.947414, -0.183621
     1203222000,  0.953285,   3.91275, -1.395942,   0.08704,  1.955252, -0.184126,  0.954569,  3.912414, -1.395517,  0.087414,   1.95569, -0.183621
     1203232000,   0.95694,   3.92775, -1.401294,  0.087374,  1.962748, -0.184832,  0.957931,  3.926897,  -1.40069,  0.087414,  1.963448, -0.185345
     1203242000,  0.960594,   3.94275, -1.406645,  0.087707,  1.970243, -0.185538,  0.961293,  3.942155, -1.405862,  0.087931,   1.97069, -0.185345
     1203252000,  0.964249,   3.95775, -1.411997,  0.088041,  1.977739, -0.186244,  0.964655,  3.957672, -1.411034,  0.087931,  1.977414, -0.186207
     1203262000,  0.967903,   3.97275, -1.417348,  0.088375,  1.985235,  -0.18695,  0.968017,  3.973448, -1.416207,  0.088448,  1.985172, -0.187069
     1203272000,  0.971558,   3.98775,   -1.4227,  0.088708,   1.99273, -0.187656,  0.971379,  3.988448, -1.421121,  0.088448,  1.992931, -0.187931
     1203282000,  0.975212,   4.00275, -1.428051,  0.089042,  2.000226, -0.188361,  0.974741,   4.00319, -1.426552,  0.088966,  2.000172, -0.188793
     1203292000,  0.978867,   4.01775, -1.433403,  0.089376,  2.007722, -0.189067,  0.978103,  4.017931, -1.431983,  0.089483,  2.007931, -0.189655
     1203302000,  0.982521,   4.03275, -1.438754,  0.089709,  2.015217, -0.189773,  0.981466,  4.033707, -1.437414,  0.089483,  2.015172, -0.190517
     1203312000,  0.986176,   4.04775, -1.444106,  0.090043,  2.022713, -0.190479,  0.985086,  4.048966, -1.443103,      0.09,  2.022414, -0.190517
     1203322000,   0.98983,   4.06275, -1.449457,  0.090377,  2.030209, -0.191185,  0.988707,  4.063707, -1.449052,  0.090517,  2.030172, -0.191379
     1203332000,  0.993485,   4.07775, -1.454809,   0.09071,  2.037705, -0.191891,  0.992328,  4.078448,    -1.455,  0.091034,  2.037414, -0.192241
     1203342000,  0.997139,   4.09275,  -1.46016,  0.091044,    2.0452, -0.192597,  0.995948,   4.09319,  -1.46069,  0.091034,   2.04569, -0.193103
     1203352000,  1.000794,   4.10775, -1.465512,  0.091378,  2.052696, -0.193303,  0.999828,  4.108707, -1.466638,  0.091552,  2.052414, -0.193966
     1203362000,  1.004448,   4.12275, -1.470863,  0.091711,  2.060192, -0.194008,  1.003707,  4.123966,  -1.47181,  0.092069,  2.060172, -0.193966
     1203372000,  1.008103,   4.13775, -1.476215,  0.092045,  2.067687, -0.194714,  1.007586,  4.138448, -1.477241,  0.092069,  2.067931, -0.194828
     1203382000,  1.011758,   4.15275, -1.481566,  0.092379,  2.075183,  -0.19542,  1.011466,  4.152672, -1.482155,  0.092069,  2.075172,  -0.19569
     1203392000,  1.015412,   4.16775, -1.486918,  0.092712,  2.082679, -0.196126,  1.015345,  4.167155, -1.487328,  0.092586,  2.082414,  -0.19569
     1203402000,  1.019067,   4.18275,  -1.49227,  0.093046,  2.090174, -0.196832,  1.019224,  4.182155, -1.492241,  0.093103,  2.090172, -0.197414
     1203412000,  1.022721,   4.19775, -1.497621,   0.09338,   2.09767, -0.197538,  1.023362,  4.197672, -1.496897,  0.093103,  2.097414, -0.197414
     1203422000,  1.026376,   4.21275, -1.502973,  0.093713,  2.105166, -0.198244,  1.026983,  4.212672, -1.502069,  0.094138,  2.105172, -0.198276
     1203432000,   1.03003,   4.22775, -1.508324,  0.094047,  2.112662, -0.198949,  1.030603,  4.227155, -1.507241,  0.094138,  2.112414, -0.199138
     1203442000,  1.033685,   4.24275, -1.513676,  0.094381,  2.120157, -0.199655,  1.034483,  4.241897, -1.512672,  0.094138,  2.120172, -0.199138
     1203452000,  1.037339,   4.25775, -1.519027,  0.094714,  2.127653, -0.200361,  1.038103,  4.257414, -1.518103,  0.094655,  2.127931, -0.200862
     1203462000,  1.040994,   4.27275, -1.524379,  0.095048,  2.135149, -0.201067,  1.041466,   4.27319, -1.524052,  0.095172,   2.13569, -0.200862
     1203472000,  1.044648,   4.28775,  -1.52973,  0.095382,  2.142644, -0.201773,  1.044828,   4.28819, -1.529483,  0.095172,  2.143448, -0.201724
     1203482000,  1.048303,   4.30275, -1.535082,  0.095715,   2.15014, -0.202479,  1.047931,  4.302672, -1.535431,   0.09569,  2.149655, -0.202586
     1203492000,  1.051957,   4.31775, -1.540433,  0.096049,  2.157636, -0.203185,  1.051552,  4.317672, -1.541121,  0.096207,  2.157414, -0.203448
     1203502000,  1.055612,   4.33275, -1.545785,  0.096383,  2.165131, -0.203891,  1.054914,  4.333448, -1.546552,  0.096724,  2.165172,  -0.20431
     1203512000,  1.059266,   4.34775, -1.551136,  0.096716,  2.172627, -0.204596,  1.058534,  4.348707, -1.551724,  0.096724,  2.172931, -0.205172
     1203522000,  1.062921,   4.36275, -1.556488,   0.09705,  2.180123, -0.205302,  1.061897,  4.362931, -1.557155,  0.097241,  2.180172, -0.205172
     1203532000,  1.066576,   4.37775, -1.561839,  0.097384,  2.187618, -0.206008,  1.065517,  4.376897, -1.562328,  0.097241,  2.187414, -0.206034
     1203542000,   1.07023,   4.39275, -1.567191,  0.097718,  2.195114, -0.206714,  1.069138,  4.391638, -1.567241,  0.097759,  2.195172, -0.206897
     1203552000,  1.073885,   4.40775, -1.572542,  0.098051,   2.20261,  -0.20742,  1.073017,  4.407414, -1.572414,  0.097759,  2.202414, -0.207759
     1203562000,  1.077539,   4.42275, -1.577894,  0.098385,  2.210106, -0.208126,  1.076897,   4.42319, -1.577845,  0.098276,  2.210172, -0.208621
     1203572000,  1.081194,   4.43775, -1.583245,  0.098719,  2.217601, -0.208832,  1.080776,   4.43819, -1.583017,  0.098276,  2.218966, -0.208621
     1203582000,  1.084848,   4.45275, -1.588597,  0.099052,  2.225097, -0.209538,  1.084914,  4.452931, -1.588448,  0.098793,  2.226207, -0.209483
     1203592000,  1.088503,   4.46775, -1.593948,  0.099386,  2.232593, -0.210243,  1.088793,  4.467672, -1.594138,   0.09931,  2.232931, -0.210345
     1203602000,  1.092157,   4.48275,   -1.5993,   0.09972,  2.240088, -0.210949,  1.092931,  4.482931, -1.599828,  0.099828,  2.240172, -0.211207
     1203612000,  1.095812,   4.49775, -1.604651,  0.100053,  2.247584, -0.211655,   1.09681,  4.498448, -1.606034,  0.100345,  2.248966, -0.212069
     1203622000,  1.099466,   4.51275, -1.610003,  0.100387,   2.25508, -0.212361,   1.10069,   4.51319, -1.611724,  0.100345,  2.256724, -0.212069
     1203632000,  1.103121,   4.52775, -1.615354,  0.100721,  2.262575, -0.213067,   1.10431,  4.527672, -1.617414,  0.100862,  2.263448, -0.212931
     1203642000,  1.106775,   4.54275, -1.620706,  0.101054,  2.270071, -0.213773,  1.107931,  4.542672, -1.622845,  0.101379,  2.271207, -0.213793
     1203652000,   1.11043,   4.55775, -1.626057,  0.101388,  2.277567, -0.214479,  1.111552,  4.558448, -1.627759,  0.101379,  2.278448, -0.214655
     1203662000,  1.114084,   4.57275, -1.631409,  0.101722,  2.285062, -0.215184,  1.114914,  4.574224, -1.632931,  0.101897,  2.286207, -0.215517
     1203672000,  1.117739,   4.58775,  -1.63676,  0.102055,  2.292558,  -0.21589,  1.118276,  4.589483, -1.637586,  0.101897,  2.294483, -0.216379
     1203682000,  1.121394,   4.60275, -1.642112,  0.102389,  2.300054, -0.216596,  1.121379,  4.603966, -1.642759,  0.102414,  2.301724, -0.217241
     1203692000,  1.125048,   4.61775, -1.647463,  0.102723,   2.30755, -0.217302,     1.125,  4.618707, -1.647672,  0.102414,  2.307931, -0.217241
     1203702000,  1.128703,   4.63275, -1.652815,  0.103056,  2.315045, -0.218008,  1.128362,  4.634224, -1.652586,  0.102931,   2.31569, -0.218103
     1203712000,  1.132357,   4.64775, -1.658166,   0.10339,  2.322541, -0.218714,  1.131983,  4.649483,   -1.6575,  0.103448,  2.323448, -0.218966
     1203722000,  1.136012,   4.66275, -1.663518,  0.103724,  2.330037,  -0.21942,  1.135345,  4.663966, -1.662672,  0.103448,   2.33069, -0.218966
     1203732000,  1.139666,   4.67775, -1.668869,  0.104057,  2.337532, -0.220126,  1.138966,   4.67819, -1.668103,  0.103966,  2.338966, -0.219828
     1203742000,  1.143321,   4.69275, -1.674221,  0.104391,  2.345028, -0.220831,  1.142586,  4.692931, -1.673793,  0.104483,  2.346207, -0.221552
     1203752000,  1.146975,   4.70775, -1.679572,  0.104725,  2.352524, -0.221537,  1.146207,  4.708448, -1.679483,     0.105,  2.352931, -0.221552
     1203762000,   1.15063,   4.72275, -1.684924,  0.105058,  2.360019, -0.222243,  1.150345,  4.723707, -1.685172,     0.105,   2.36069, -0.222414
     1203772000,  1.154284,   4.73775, -1.690276,  0.105392,  2.367515, -0.222949,  1.154224,  4.738448, -1.690862,  0.105517,  2.368448, -0.223276
     1203782000,  1.157939,   4.75275, -1.695627,  0.105726,  2.375011, -0.223655,  1.158362,  4.752414, -1.696034,  0.106034,  2.375172, -0.224138
     1203792000,  1.161593,   4.76775, -1.700979,  0.106059,  2.382507, -0.224361,  1.162241,  4.766897, -1.701207,  0.106034,  2.382414,    -0.225
     1203802000,  1.165248,   4.78275,  -1.70633,  0.106393,  2.390002, -0.225067,  1.166121,  4.782155, -1.706379,  0.106034,  2.390172,    -0.225
     1203812000,  1.168902,   4.79775, -1.711682,  0.106727,  2.397498, -0.225773,      1.17,  4.797931, -1.711293,  0.107069,  2.396379, -0.225862
     1203822000,  1.172557,   4.81275, -1.717033,  0.107061,  2.404994, -0.226478,  1.173879,  4.812931, -1.715948,  0.107069,   2.40569, -0.226724
     1203832000,  1.176212,   4.82775, -1.722385,  0.107394,  2.412489, -0.227184,    1.1775,  4.827672, -1.720862,  0.107069,  2.411897, -0.227586
     1203842000,  1.179866,   4.84275, -1.727736,  0.107728,  2.419985,  -0.22789,  1.181121,  4.842414, -1.726293,  0.108103,  2.420172, -0.228448
     1203852000,  1.183521,   4.85775, -1.733088,  0.108062,  2.427481, -0.228596,  1.184741,   4.85819, -1.731466,  0.108103,  2.426897, -0.228448
     1203862000,  1.187175,   4.87275, -1.738439,  0.108395,  2.434976, -0.229302,  1.188103,  4.873966, -1.737155,  0.108103,  2.434655,  -0.22931
     1203872000,   1.19083,   4.88775, -1.743791,  0.108729,  2.442472, -0.230008,  1.191466,  4.888707, -1.742586,  0.108621,  2.441897, -0.230172
     1203882000,  1.194484,   4.90275, -1.749142,  0.109063,  2.449968, -0.230714,  1.194828,  4.903448, -1.748534,  0.109138,  2.449138, -0.231034
     1203892000,  1.198139,   4.91775, -1.754494,  0.109396,  2.457463, -0.231419,  1.197931,  4.918448, -1.754483,  0.109138,  2.456379, -0.231034
     1203902000,  1.201793,   4.93275, -1.759845,   0.10973,  2.464959, -0.232125,  1.201293,  4.933966, -1.760431,  0.109655,  2.464655, -0.231034
     1203912000,  1.205448,   4.94775, -1.765197,  0.110064,  2.472455, -0.232831,  1.204914,  4.949483, -1.766379,  0.110172,  2.471897, -0.232759
     1203922000,  1.209102,   4.96275, -1.770548,  0.110397,  2.479951, -0.233537,  1.208276,  4.963966, -1.772069,  0.110172,  2.479138, -0.233621
     1203932000,  1.212757,   4.97775,   -1.7759,  0.110731,  2.487446, -0.234243,  1.211897,  4.977931,   -1.7775,   0.11069,  2.486897, -0.233621
     1203942000,  1.216411,   4.99275, -1.781251,  0.111065,  2.494942, -0.234949,  1.215517,  4.992414, -1.782414,  0.111207,  2.494655, -0.235345
     1203952000,  1.220066,   5.00775, -1.786603,  0.111398,  2.502438, -0.235655,  1.219138,  5.007672, -1.787328,  0.111724,  2.502414, -0.236207
     1203962000,   1.22372,   5.02275, -1.791954,  0.111732,  2.509933, -0.236361,  1.223017,  5.023448, -1.791983,  0.111724,  2.509655, -0.236207
     1203972000,  1.227375,   5.03775, -1.797306,  0.112066,  2.517429, -0.237066,  1.227155,  5.038707, -1.797155,  0.112241,  2.516897, -0.237069
     1203982000,   1.23103,   5.05275, -1.802657,  0.112399,  2.524925, -0.237772,  1.231034,   5.05319, -1.802069,  0.112759,  2.525172, -0.237931
     1203992000,  1.234684,   5.06775, -1.808009,  0.112733,   2.53242, -0.238478,  1.235172,  5.067931, -1.807241,  0.112759,  2.532414, -0.238793
     1204002000,  1.238339,   5.08275,  -1.81336,  0.113067,  2.539916, -0.239184,   1.23931,  5.082931, -1.812414,  0.113276,   2.54069, -0.239655
     1204012000,  1.241993,   5.09775, -1.818712,    0.1134,  2.547412,  -0.23989,   1.24319,  5.098448, -1.817845,  0.113793,  2.548448, -0.239655
     1204022000,  1.245648,   5.11275, -1.824063,  0.113734,  2.554907, -0.240596,  1.247069,   5.11319, -1.823534,  0.113793,   2.55569, -0.241379
     1204032000,  1.249302,   5.12775, -1.829415,  0.114068,  2.562403, -0.241302,   1.25069,  5.127414, -1.828966,   0.11431,  2.562931, -0.241379
     1204042000,  1.252957,   5.14275, -1.834766,  0.114401,  2.569899, -0.242008,   1.25431,  5.141897, -1.834655,   0.11431,  2.570172, -0.242241
     1204052000,  1.256611,   5.15775, -1.840118,  0.114735,  2.577395, -0.242713,  1.257931,  5.157155, -1.840086,  0.114828,  2.577414, -0.243103
     1204062000,  1.260266,   5.17275, -1.845469,  0.115069,   2.58489, -0.243419,  1.261293,  5.172672, -1.845776,  0.115345,  2.585172, -0.243103
     1204072000,   1.26392,   5.18775, -1.850821,  0.115402,  2.592386, -0.244125,  1.264655,  5.187672, -1.850948,  0.115862,  2.592931, -0.244828
     1204082000,  1.267575,   5.20275, -1.856172,  0.115736,  2.599882, -0.244831,  1.268017,  5.202414, -1.856121,  0.115862,  2.600172, -0.244828
     1204092000,  1.271229,   5.21775, -1.861524,   0.11607,  2.607377, -0.245537,  1.271121,  5.217414, -1.861034,  0.115862,  2.607414,  -0.24569
     1204102000,  1.274884,   5.23275, -1.866875,  0.116403,  2.614873, -0.246243,  1.274483,  5.232931, -1.866207,  0.116379,  2.615172, -0.246552
     1204112000,  1.278538,   5.24775, -1.872227,  0.116737,  2.622369, -0.246949,  1.277845,  5.248707, -1.871379,  0.116897,  2.622414, -0.246552
     1204122000,  1.282193,   5.26275, -1.877578,  0.117071,  2.629864, -0.247655,  1.281207,  5.263707, -1.876552,  0.117414,  2.629655, -0.248276
     1204132000,  1.285848,   5.27775,  -1.88293,  0.117405,   2.63736,  -0.24836,  1.284569,  5.277931, -1.881983,  0.117414,  2.637414, -0.248276
     1204142000,  1.289502,   5.29275, -1.888281,  0.117738,  2.644856, -0.249066,  1.287931,  5.292672, -1.887931,  0.117414,  2.645172, -0.249138
     1204152000,  1.293157,   5.30775, -1.893633,  0.118072,  2.652352, -0.249772,  1.291552,  5.307931, -1.893621,  0.117931,  2.651897, -0.249138
     1204162000,  1.296811,   5.32275, -1.898985,  0.118406,  2.659847, -0.250478,  1.295172,  5.323448, -1.899569,  0.118448,  2.659138,     -0.25
     1204172000,  1.300466,   5.33775, -1.904336,  0.118739,  2.667343, -0.251184,   1.29931,   5.33819, -1.905776,  0.118448,  2.666897, -0.250862
     1204182000,   1.30412,   5.35275, -1.909688,  0.119073,  2.674839,  -0.25189,   1.30319,  5.352414, -1.911466,  0.118966,  2.674138, -0.251724
     1204192000,  1.307775,   5.36775, -1.915039,  0.119407,  2.682334, -0.252596,  1.307069,  5.366638, -1.917155,  0.119483,  2.681897, -0.251724
     1204202000,  1.311429,   5.38275, -1.920391,   0.11974,   2.68983, -0.253301,  1.311207,  5.382155, -1.922586,      0.12,  2.688621, -0.253448
     1204212000,  1.315084,   5.39775, -1.925742,  0.120074,  2.697326, -0.254007,  1.315345,  5.397672, -1.927759,      0.12,  2.696897, -0.253448
     1204222000,  1.318738,   5.41275, -1.931094,  0.120408,  2.704821, -0.254713,  1.319224,  5.412931, -1.932672,      0.12,  2.704138, -0.255172
     1204232000,  1.322393,   5.42775, -1.936445,  0.120741,  2.712317, -0.255419,  1.322845,  5.427414, -1.937586,  0.121034,  2.711379, -0.255172
     1204242000,  1.326047,   5.44275, -1.941797,  0.121075,  2.719813, -0.256125,  1.326724,  5.442155,   -1.9425,  0.121034,  2.718621, -0.256034
     1204252000,  1.329702,   5.45775, -1.947148,  0.121409,  2.727308, -0.256831,  1.330086,  5.457672, -1.947155,  0.121034,  2.725862, -0.256897
     1204262000,  1.333356,   5.47275,   -1.9525,  0.121742,  2.734804, -0.257537,  1.333966,  5.473448, -1.952069,  0.121552,  2.733621, -0.257759
     1204272000,  1.337011,   5.48775, -1.957851,  0.122076,    2.7423, -0.258243,  1.337328,  5.488448, -1.956983,  0.122069,  2.741379, -0.258621
     1204282000,  1.340666,   5.50275, -1.963203,   0.12241,  2.749796, -0.258948,   1.34069,   5.50319, -1.962672,  0.122069,  2.748621, -0.259483
     1204292000,   1.34432,   5.51775, -1.968554,  0.122743,  2.757291, -0.259654,  1.344052,   5.51819, -1.967845,  0.122586,  2.756379, -0.260345
     1204302000,  1.347975,   5.53275, -1.973906,  0.123077,  2.764787,  -0.26036,  1.347414,  5.533448, -1.973534,  0.123103,  2.763621, -0.260345
     1204312000,  1.351629,   5.54775, -1.979257,  0.123411,  2.772283, -0.261066,  1.350776,  5.549224, -1.979224,  0.123103,  2.771897, -0.261207
     1204322000,  1.355284,   5.56275, -1.984609,  0.123744,  2.779778, -0.261772,  1.354138,  5.563448, -1.984914,  0.123621,  2.779655, -0.262069
     1204332000,  1.358938,   5.57775,  -1.98996,  0.124078,  2.787274, -0.262478,    1.3575,  5.577414, -1.990345,  0.124138,  2.787931, -0.262931
     1204342000,  1.362593,   5.59275, -1.995312,  0.124412,   2.79477, -0.263184,  1.361121,  5.591638, -1.996034,  0.124655,  2.794655, -0.262931
     1204352000,  1.366247,   5.60775, -2.000663,  0.124745,  2.802265,  -0.26389,  1.364741,  5.606897, -2.001207,  0.124655,  2.801897, -0.264655
     1204362000,  1.369902,   5.62275, -2.006015,  0.125079,  2.809761, -0.264595,  1.368362,  5.622414, -2.006638,  0.125172,  2.810172, -0.264655
     1204372000,  1.373556,   5.63775, -2.011366,  0.125413,  2.817257, -0.265301,  1.372241,  5.637672,  -2.01181,   0.12569,  2.818448, -0.265517
     1204382000,  1.377211,   5.65275, -2.016718,  0.125746,  2.824753, -0.266007,  1.376121,  5.651897, -2.016983,   0.12569,   2.82569, -0.266379
     1204392000,  1.380865,   5.66775, -2.022069,   0.12608,  2.832248, -0.266713,      1.38,  5.666379, -2.021897,  0.126207,  2.831379, -0.266379
     1204402000,   1.38452,   5.68275, -2.027421,  0.126414,  2.839744, -0.267419,  1.384397,  5.681638, -2.027069,  0.126724,   2.84069, -0.267241
     1204412000,  1.388174,   5.69775, -2.032772,  0.126747,   2.84724, -0.268125,  1.388534,  5.697414, -2.032241,  0.126724,  2.848448, -0.268103
     1204422000,  1.391829,   5.71275, -2.038124,  0.127081,  2.854735, -0.268831,  1.392414,  5.712672, -2.037672,  0.127241,   2.85569, -0.268966
     1204432000,  1.395484,   5.72775, -2.043475,  0.127415,  2.862231, -0.269536,  1.396293,  5.727155, -2.043362,  0.127759,  2.863448, -0.268966
     1204442000,  1.399138,   5.74275, -2.048827,  0.127749,  2.869727, -0.270242,  1.399914,  5.741897,  -2.04931,  0.127759,   2.87069,  -0.27069
     1204452000,  1.402793,   5.75775, -2.054178,  0.128082,  2.877222, -0.270948,  1.403793,  5.757672, -2.055259,  0.128276,  2.878448,  -0.27069
     1204462000,  1.406447,   5.77275,  -2.05953,  0.128416,  2.884718, -0.271654,  1.407414,  5.773448,  -2.06069,  0.128793,   2.88569, -0.271552
     1204472000,  1.410102,   5.78775, -2.064881,   0.12875,  2.892214,  -0.27236,  1.410776,  5.788448, -2.066379,  0.128793,  2.893448, -0.272414
     1204482000,  1.413756,   5.80275, -2.070233,  0.129083,  2.899709, -0.273066,  1.414397,  5.802931, -2.071552,   0.12931,   2.90069, -0.273276
     1204492000,  1.417411,   5.81775, -2.075584,  0.129417,  2.907205, -0.273772,  1.418017,  5.817672, -2.076724,  0.129828,  2.907931, -0.273276
     1204502000,  1.421065,   5.83275, -2.080936,  0.129751,  2.914701, -0.274478,  1.421121,   5.83319, -2.081638,  0.129828,   2.91569, -0.274138
     1204512000,   1.42472,   5.84775, -2.086287,  0.130084,  2.922197, -0.275183,  1.424741,  5.848707, -2.086552,  0.130345,  2.923448, -0.275862
     1204522000,  1.428374,   5.86275, -2.091639,  0.130418,  2.929692, -0.275889,  1.428362,  5.863966, -2.091207,  0.130862,  2.931207, -0.275862
     1204532000,  1.432029,   5.87775, -2.096991,  0.130752,  2.937188, -0.276595,  1.431466,  5.878448, -2.096121,  0.130862,  2.937931, -0.276724
     1204542000,  1.435683,   5.89275, -2.102342,  0.131085,  2.944684, -0.277301,  1.435345,  5.893448, -2.100776,  0.130862,   2.94569, -0.277586
     1204552000,  1.439338,   5.90775, -2.107694,  0.131419,  2.952179, -0.278007,  1.438966,  5.908966, -2.105948,  0.131379,  2.953448, -0.278448
     1204562000,  1.442992,   5.92275, -2.113045,  0.131753,  2.959675, -0.278713,  1.442586,  5.924483, -2.111121,  0.131897,  2.960172, -0.278448
     1204572000,  1.446647,   5.93775, -2.118397,  0.132086,  2.967171, -0.279419,  1.446207,  5.938966, -2.116552,  0.132414,  2.967931,  -0.27931
     1204582000,  1.450302,   5.95275, -2.123748,   0.13242,  2.974666, -0.280125,  1.449828,   5.95319, -2.122241,  0.132414,   2.97569, -0.280172
     1204592000,  1.453956,   5.96775,   -2.1291,  0.132754,  2.982162,  -0.28083,  1.453707,  5.967414, -2.127931,  0.132931,  2.982931, -0.281034
     1204602000,  1.457611,   5.98275, -2.134451,  0.133087,  2.989658, -0.281536,  1.457845,  5.982672, -2.133879,  0.132931,  2.990172, -0.281034
     1204612000,  1.461265,   5.99775, -2.139803,  0.133421,  2.997153, -0.282242,  1.461724,  5.997931, -2.139569,  0.133448,  2.998448, -0.282759
     1204622000,   1.46492,   6.01275, -2.145154,  0.133755,  3.004649, -0.282948,  1.465603,   6.01319,    -2.145,  0.133966,  3.005172, -0.282759
     1204632000,  1.468574,   6.02775, -2.150506,  0.134088,  3.012145, -0.283654,  1.469741,  6.027414,  -2.15069,  0.134483,  3.012414, -0.283621
     1204642000,  1.472229,   6.04275, -2.155857,  0.134422,  3.019641,  -0.28436,  1.473621,  6.041897, -2.156121,  0.134483,  3.019655, -0.284483
     1204652000,  1.475883,   6.05775, -2.161209,  0.134756,  3.027136, -0.285066,  1.477241,  6.057155, -2.161552,  0.134483,  3.025862, -0.285345
     1204662000,  1.479538,   6.07275,  -2.16656,  0.135089,  3.034632, -0.285771,  1.481121,  6.072672, -2.166466,     0.135,  3.034655, -0.285345
     1204672000,  1.483192,   6.08775, -2.171912,  0.135423,  3.042128, -0.286477,  1.484224,  6.087931, -2.171638,  0.135517,  3.040862, -0.287069
     1204682000,  1.486847,   6.10275, -2.177263,  0.135757,  3.049623, -0.287183,  1.487586,  6.102672, -2.177069,  0.135517,  3.049138, -0.287069
     1204692000,  1.490501,   6.11775, -2.182615,   0.13609,  3.057119, -0.287889,  1.491207,  6.117672, -2.182241,  0.136034,  3.055862, -0.287931
     1204702000,  1.494156,   6.13275, -2.187966,  0.136424,  3.064615, -0.288595,   1.49431,   6.13319, -2.187931,  0.136552,  3.063621, -0.288793
     1204712000,   1.49781,   6.14775, -2.193318,  0.136758,   3.07211, -0.289301,  1.497414,  6.148707, -2.193879,  0.136552,  3.071379, -0.289655
     1204722000,  1.501465,   6.16275, -2.198669,  0.137091,  3.079606, -0.290007,  1.501034,   6.16319, -2.199828,  0.137069,  3.079138, -0.289655
     1204732000,   1.50512,   6.17775, -2.204021,  0.137425,  3.087102, -0.290713,  1.504397,  6.177414, -2.205517,  0.137586,  3.085345, -0.291379
     1204742000,  1.508774,   6.19275, -2.209372,  0.137759,  3.094598, -0.291418,  1.507759,  6.191897, -2.211466,  0.137586,  3.093103, -0.291379
     1204752000,  1.512429,   6.20775, -2.214724,  0.138093,  3.102093, -0.292124,  1.511121,  6.207155, -2.217155,  0.138103,  3.101897, -0.292241
     1204762000,  1.516083,   6.22275, -2.220075,  0.138426,  3.109589,  -0.29283,  1.514741,   6.22319, -2.222328,  0.138621,  3.109138, -0.293103
     1204772000,  1.519738,   6.23775, -2.225427,   0.13876,  3.117085, -0.293536,  1.518621,  6.238707, -2.227759,  0.139138,  3.116379, -0.293966
     1204782000,  1.523392,   6.25275, -2.230778,  0.139094,   3.12458, -0.294242,    1.5225,   6.25319, -2.232672,  0.139138,  3.125172, -0.294828
     1204792000,  1.527047,   6.26775,  -2.23613,  0.139427,  3.132076, -0.294948,  1.526379,  6.267672, -2.237586,  0.139138,  3.132414, -0.294828
     1204802000,  1.530701,   6.28275, -2.241481,  0.139761,  3.139572, -0.295654,  1.530517,   6.28319,   -2.2425,  0.139655,  3.139138,  -0.29569
     1204812000,  1.534356,   6.29775, -2.246833,  0.140095,  3.147067,  -0.29636,  1.534655,  6.298448, -2.247155,  0.140172,  3.147931, -0.296552
     1204822000,   1.53801,   6.31275, -2.252184,  0.140428,  3.154563, -0.297065,  1.538534,   6.31319, -2.252069,   0.14069,  3.154655, -0.297414
     1204832000,  1.541665,   6.32775, -2.257536,  0.140762,  3.162059, -0.297771,  1.542931,  6.327672, -2.256983,   0.14069,  3.162414, -0.298276
     1204842000,  1.545319,   6.34275, -2.262887,  0.141096,  3.169554, -0.298477,  1.546552,  6.342672, -2.261897,  0.141207,  3.170172, -0.298276
     1204852000,  1.548974,   6.35775, -2.268239,  0.141429,   3.17705, -0.299183,  1.550431,  6.358448, -2.267586,  0.141724,  3.177931, -0.298276
     1204862000,  1.552628,   6.37275,  -2.27359,  0.141763,  3.184546, -0.299889,  1.554052,  6.373966, -2.273017,  0.141724,  3.185172,      -0.3
     1204872000,  1.556283,   6.38775, -2.278942,  0.142097,  3.192042, -0.300595,  1.557155,  6.389224, -2.278707,  0.141724,  3.192414,      -0.3
     1204882000,  1.559938,   6.40275, -2.284293,   0.14243,  3.199537, -0.301301,  1.561034,  6.403707, -2.284138,  0.142241,  3.199655, -0.300862
     1204892000,  1.563592,   6.41775, -2.289645,  0.142764,  3.207033, -0.302006,  1.564397,   6.41819, -2.289828,  0.142759,  3.206897, -0.301724
     1204902000,  1.567247,   6.43275, -2.294997,  0.143098,  3.214529, -0.302712,  1.567759,  6.433966, -2.295259,  0.142759,  3.215172, -0.302586
     1204912000,  1.570901,   6.44775, -2.300348,  0.143431,  3.222024, -0.303418,  1.571121,  6.449483,  -2.30069,  0.143276,  3.222414, -0.303448
     1204922000,  1.574556,   6.46275,   -2.3057,  0.143765,   3.22952, -0.304124,  1.574741,  6.464224, -2.305862,  0.143793,  3.229655,  -0.30431
     1204932000,   1.57821,   6.47775, -2.311051,  0.144099,  3.237016,  -0.30483,  1.577845,  6.478707, -2.310776,   0.14431,  3.236897,  -0.30431
     1204942000,  1.581865,   6.49275, -2.316403,  0.144432,  3.244511, -0.305536,  1.581207,   6.49319,  -2.31569,   0.14431,  3.244138, -0.305172
     1204952000,  1.585519,   6.50775, -2.321754,  0.144766,  3.252007, -0.306242,  1.585086,  6.508707, -2.320603,  0.144828,  3.251897, -0.306897
     1204962000,  1.589174,   6.52275, -2.327106,    0.1451,  3.259503, -0.306948,  1.588448,  6.523966, -2.325776,  0.145345,  3.260172, -0.307759
     1204972000,  1.592828,   6.53775, -2.332457,  0.145433,  3.266998, -0.307653,  1.592069,  6.538448, -2.330948,  0.145345,  3.267414, -0.307759
     1204982000,  1.596483,   6.55275, -2.337809,  0.145767,  3.274494, -0.308359,   1.59569,  6.552414, -2.336379,  0.145862,  3.274138, -0.308621
     1204992000,  1.600137,   6.56775,  -2.34316,  0.146101,   3.28199, -0.309065,  1.599569,  6.566897,  -2.34181,  0.145862,  3.281379, -0.309483
     1205002000,  1.603792,   6.58275, -2.348512,  0.146434,  3.289486, -0.309771,  1.603707,  6.582155,   -2.3475,  0.146379,  3.289655, -0.310345
     1205012000,  1.607446,   6.59775, -2.353863,  0.146768,  3.296981, -0.310477,  1.607069,   6.59819,  -2.35319,  0.146897,  3.297414, -0.310345
     1205022000,  1.611101,   6.61275, -2.359215,  0.147102,  3.304477, -0.311183,  1.611207,  6.612931, -2.359397,  0.147414,  3.303621, -0.311207
     1205032000,  1.614756,   6.62775, -2.364566,  0.147436,  3.311973, -0.311889,  1.615345,  6.627414, -2.365086,  0.147414,  3.310862, -0.312069
     1205042000,   1.61841,   6.64275, -2.369918,  0.147769,  3.319468, -0.312595,  1.619224,  6.641897, -2.370776,  0.147931,  3.319138, -0.312069
     1205052000,  1.622065,   6.65775, -2.375269,  0.148103,  3.326964,   -0.3133,  1.623103,  6.657414, -2.376207,  0.147931,  3.326379, -0.313793
     1205062000,  1.625719,   6.67275, -2.380621,  0.148437,   3.33446, -0.314006,  1.626983,  6.673448, -2.381379,  0.148448,  3.333621, -0.313793
     1205072000,  1.629374,   6.68775, -2.385972,   0.14877,  3.341955, -0.314712,  1.631121,  6.688707, -2.386293,  0.148966,  3.341379, -0.314655
     1205082000,  1.633028,   6.70275, -2.391324,  0.149104,  3.349451, -0.315418,  1.634483,  6.703448, -2.391207,  0.148966,  3.348621, -0.315517
     1205092000,  1.636683,   6.71775, -2.396675,  0.149438,  3.356947, -0.316124,  1.637845,  6.718448, -2.396379,  0.149483,  3.356379, -0.315517
     1205102000,  1.640337,   6.73275, -2.402027,  0.149771,  3.364443,  -0.31683,  1.641207,  6.733966, -2.401293,      0.15,  3.363621, -0.317241
     1205112000,  1.643992,   6.74775, -2.407378,  0.150105,  3.371938, -0.317536,  1.644569,  6.749741, -2.406207,      0.15,  3.370862, -0.317241
     1205122000,  1.647646,   6.76275,  -2.41273,  0.150439,  3.379434, -0.318242,   1.64819,  6.764224, -2.411379,  0.150517,  3.378621, -0.318103
     1205132000,  1.651301,   6.77775, -2.418081,  0.150772,   3.38693, -0.318947,  1.651552,  6.777931,  -2.41681,  0.151034,  3.385862, -0.318966
     1205142000,  1.654955,   6.79275, -2.423433,  0.151106,  3.394425, -0.319653,  1.654397,  6.792414,   -2.4225,  0.151034,  3.394655, -0.319828
     1205152000,   1.65861,   6.80775, -2.428784,   0.15144,  3.401921, -0.320359,  1.658017,  6.807931,  -2.42819,  0.151552,  3.401897, -0.319828
     1205162000,  1.662264,   6.82275, -2.434136,  0.151773,  3.409417, -0.321065,  1.661638,  6.823707, -2.434138,  0.152069,  3.409655, -0.321552
     1205172000,  1.665919,   6.83775, -2.439487,  0.152107,  3.416912, -0.321771,  1.665259,  6.838966, -2.440086,  0.152069,  3.417414, -0.321552
     1205182000,  1.669574,   6.85275, -2.444839,  0.152441,  3.424408, -0.322477,  1.668362,  6.853448, -2.445776,  0.152586,  3.425172, -0.322414
     1205192000,  1.673228,   6.86775,  -2.45019,  0.152774,  3.431904, -0.323183,  1.671983,  6.867931, -2.451207,  0.153103,  3.431897, -0.323276
     1205202000,  1.676883,   6.88275, -2.455542,  0.153108,  3.439399, -0.323888,  1.676121,  6.882931, -2.456638,  0.153103,  3.440172, -0.324138
     1205212000,  1.680537,   6.89775, -2.460893,  0.153442,  3.446895, -0.324594,      1.68,   6.89819,  -2.46181,  0.153103,  3.446897,    -0.325
     1205222000,  1.684192,   6.91275, -2.466245,  0.153775,  3.454391,   -0.3253,  1.683879,  6.912931, -2.466983,  0.154138,  3.455172,    -0.325
     1205232000,  1.687846,   6.92775, -2.471596,  0.154109,  3.461887, -0.326006,  1.687759,  6.927155, -2.472155,  0.154138,  3.463448, -0.325862
     1205242000,  1.691501,   6.94275, -2.476948,  0.154443,  3.469382, -0.326712,  1.691897,  6.941897, -2.477328,  0.154655,  3.470172, -0.326724
     1205252000,  1.695155,   6.95775, -2.482299,  0.154776,  3.476878, -0.327418,  1.696034,  6.957155,   -2.4825,  0.155172,  3.477414, -0.326724
     1205262000,   1.69881,   6.97275, -2.487651,   0.15511,  3.484374, -0.328124,  1.700172,  6.972931, -2.487931,  0.155172,  3.485172, -0.328448
     1205272000,  1.702464,   6.98775, -2.493003,  0.155444,  3.491869,  -0.32883,  1.703534,  6.987931, -2.493621,   0.15569,  3.492931, -0.328448
     1205282000,  1.706119,   7.00275, -2.498354,  0.155777,  3.499365, -0.329535,  1.707414,  7.002414,  -2.49931,  0.156207,  3.501207,  -0.32931
     1205292000,  1.709773,   7.01775, -2.503706,  0.156111,  3.506861, -0.330241,  1.710517,  7.017414, -2.505259,  0.156207,  3.507931, -0.330172
     1205302000,  1.713428,   7.03275, -2.509057,  0.156445,  3.514356, -0.330947,  1.713621,   7.03319, -2.510948,  0.156724,  3.515172, -0.330172
     1205312000,  1.717082,   7.04775, -2.514409,  0.156778,  3.521852, -0.331653,  1.717241,  7.048966, -2.516638,  0.156724,  3.522414, -0.331034
     1205322000,  1.720737,   7.06275,  -2.51976,  0.157112,  3.529348, -0.332359,  1.720603,  7.063966, -2.522069,  0.157241,  3.529655, -0.332759
     1205332000,  1.724392,   7.07775, -2.525112,  0.157446,  3.536843, -0.333065,  1.724483,  7.078448, -2.527241,  0.157241,  3.537931, -0.332759
     1205342000,  1.728046,   7.09275, -2.530463,   0.15778,  3.544339, -0.333771,  1.727845,  7.092672, -2.532155,  0.157759,  3.545172, -0.333621
     1205352000,  1.731701,   7.10775, -2.535815,  0.158113,  3.551835, -0.334477,  1.731207,   7.10819,  -2.53681,  0.158276,  3.552414, -0.333621
     1205362000,  1.735355,   7.12275, -2.541166,  0.158447,  3.559331, -0.335182,  1.734828,   7.12319, -2.541724,  0.158276,  3.560172, -0.334483
     1205372000,   1.73901,   7.13775, -2.546518,  0.158781,  3.566826, -0.335888,   1.73819,  7.137931, -2.546379,  0.158793,  3.568448, -0.335345
     1205382000,  1.742664,   7.15275, -2.551869,  0.159114,  3.574322, -0.336594,   1.74181,  7.152155, -2.551293,   0.15931,  3.574655, -0.336207
     1205392000,  1.746319,   7.16775, -2.557221,  0.159448,  3.581818,   -0.3373,  1.745431,  7.166897, -2.556466,   0.15931,  3.581897, -0.337069
     1205402000,  1.749973,   7.18275, -2.562572,  0.159782,  3.589313, -0.338006,   1.74931,  7.182155, -2.561379,  0.159828,  3.589655, -0.337931
     1205412000,  1.753628,   7.19775, -2.567924,  0.160115,  3.596809, -0.338712,  1.753707,  7.197931, -2.566552,  0.159828,  3.597414, -0.338793
     1205422000,  1.757282,   7.21275, -2.573275,  0.160449,  3.604305, -0.339418,  1.757845,  7.212672, -2.571983,  0.160345,  3.604655, -0.339655
     1205432000,  1.760937,   7.22775, -2.578627,  0.160783,    3.6118, -0.340123,  1.761983,  7.227414, -2.577414,  0.160862,  3.611897, -0.339655
     1205442000,  1.764591,   7.24275, -2.583978,  0.161116,  3.619296, -0.340829,  1.765603,  7.242155, -2.583362,  0.160862,  3.618621, -0.341379
     1205452000,  1.768246,   7.25775,  -2.58933,   0.16145,  3.626792, -0.341535,  1.769483,  7.257672, -2.588793,  0.161897,  3.626379, -0.341379
     1205462000,    1.7719,   7.27275, -2.594681,  0.161784,  3.634288, -0.342241,  1.772586,  7.273448, -2.594483,  0.161897,  3.634655, -0.342241
     1205472000,  1.775555,   7.28775, -2.600033,  0.162117,  3.641783, -0.342947,  1.776466,  7.288448, -2.599914,  0.161897,  3.641897, -0.343103
     1205482000,   1.77921,   7.30275, -2.605384,  0.162451,  3.649279, -0.343653,  1.780086,   7.30319, -2.605086,  0.162414,  3.648621, -0.343103
     1205492000,  1.782864,   7.31775, -2.610736,  0.162785,  3.656775, -0.344359,  1.784224,   7.31819, -2.610259,  0.162931,  3.655862, -0.344828
     1205502000,  1.786519,   7.33275, -2.616087,  0.163118,   3.66427, -0.345065,  1.788103,  7.333707, -2.615431,  0.163448,  3.663621,  -0.34569
     1205512000,  1.790173,   7.34775, -2.621439,  0.163452,  3.671766,  -0.34577,  1.791207,  7.349224, -2.620345,  0.163448,  3.671379,  -0.34569
     1205522000,  1.793828,   7.36275,  -2.62679,  0.163786,  3.679262, -0.346476,  1.794569,  7.363707, -2.625776,  0.163966,  3.678621, -0.346552
     1205532000,  1.797482,   7.37775, -2.632142,  0.164119,  3.686757, -0.347182,  1.797931,  7.377672, -2.630948,  0.164483,  3.685862, -0.346552
     1205542000,  1.801137,   7.39275, -2.637493,  0.164453,  3.694253, -0.347888,  1.801293,  7.391897, -2.636379,  0.164483,  3.694138, -0.348276
     1205552000,  1.804791,   7.40775, -2.642845,  0.164787,  3.701749, -0.348594,  1.804655,  7.407414,  -2.64181,  0.164483,  3.700862, -0.348276
     1205562000,  1.808446,   7.42275, -2.648196,   0.16512,  3.709244,   -0.3493,  1.808017,  7.422672, -2.647759,     0.165,  3.709138, -0.349138
     1205572000,    1.8121,   7.43775, -2.653548,  0.165454,   3.71674, -0.350006,  1.811897,  7.437414, -2.653707,  0.165517,  3.716897,     -0.35
     1205582000,  1.815755,   7.45275, -2.658899,  0.165788,  3.724236, -0.350712,  1.815776,  7.451638, -2.659655,  0.165517,  3.724138, -0.350862
     1205592000,  1.819409,   7.46775, -2.664251,  0.166121,  3.731732, -0.351417,  1.819397,  7.466121, -2.665603,  0.166034,  3.731897, -0.350862
     1205602000,  1.823064,   7.48275, -2.669602,  0.166455,  3.739227, -0.352123,  1.823017,  7.481379, -2.671034,  0.166552,  3.739138, -0.352586
     1205612000,  1.826718,   7.49775, -2.674954,  0.166789,  3.746723, -0.352829,  1.826897,  7.497155, -2.676724,  0.167069,  3.746897, -0.352586
     1205622000,  1.830373,   7.51275, -2.680305,  0.167122,  3.754219, -0.353535,  1.830259,  7.512155, -2.681638,  0.167069,  3.754655, -0.353448
     1205632000,  1.834028,   7.52775, -2.685657,  0.167456,  3.761714, -0.354241,  1.834138,  7.526638, -2.686552,  0.167069,  3.762414,  -0.35431
     1205642000,  1.837682,   7.54275, -2.691009,   0.16779,   3.76921, -0.354947,  1.838017,  7.541897, -2.691466,  0.167586,  3.769138,  -0.35431
     1205652000,  1.841337,   7.55775,  -2.69636,  0.168124,  3.776706, -0.355653,  1.841897,  7.557672, -2.696121,  0.168103,  3.776897, -0.356034
     1205662000,  1.844991,   7.57275, -2.701712,  0.168457,  3.784201, -0.356358,  1.845776,  7.573448, -2.701034,  0.168103,  3.784138, -0.356034
     1205672000,  1.848646,   7.58775, -2.707063,  0.168791,  3.791697, -0.357064,  1.849655,  7.588448, -2.705948,  0.168621,  3.791379, -0.356897
     1205682000,    1.8523,   7.60275, -2.712415,  0.169125,  3.799193,  -0.35777,  1.853534,   7.60319, -2.711121,  0.169138,  3.799655, -0.357759
     1205692000,  1.855955,   7.61775, -2.717766,  0.169458,  3.806688, -0.358476,  1.856638,  7.617931, -2.716552,  0.169138,  3.806897, -0.357759
     1205702000,  1.859609,   7.63275, -2.723118,  0.169792,  3.814184, -0.359182,  1.859741,  7.633707, -2.721983,  0.169655,  3.814138, -0.359483
     1205712000,  1.863264,   7.64775, -2.728469,  0.170126,   3.82168, -0.359888,  1.862845,  7.649224, -2.727672,  0.170172,  3.821379, -0.360345
     1205722000,  1.866918,   7.66275, -2.733821,  0.170459,  3.829176, -0.360594,  1.866466,  7.663966, -2.733362,  0.170172,  3.829138, -0.360345
     1205732000,  1.870573,   7.67775, -2.739172,  0.170793,  3.836671,   -0.3613,  1.869828,  7.678707, -2.739052,   0.17069,  3.836897, -0.361207
     1205742000,  1.874227,   7.69275, -2.744524,  0.171127,  3.844167, -0.362005,   1.87319,  7.693448, -2.744741,  0.171207,  3.844138, -0.362069
     1205752000,  1.877882,   7.70775, -2.749875,   0.17146,  3.851663, -0.362711,  1.876034,  7.708966, -2.750172,  0.171724,  3.851897, -0.362931
     1205762000,  1.881536,   7.72275, -2.755227,  0.171794,  3.859158, -0.363417,  1.879138,  7.724224, -2.755345,  0.171724,  3.859138, -0.362931
     1205772000,  1.885191,   7.73775, -2.760578,  0.172128,  3.866654, -0.364123,  1.883017,  7.738707, -2.760517,  0.171724,  3.866897, -0.364655
     1205782000,  1.888846,   7.75275,  -2.76593,  0.172461,   3.87415, -0.364829,  1.887414,  7.752672, -2.765431,  0.172759,  3.873621, -0.365517
     1205792000,    1.8925,   7.76775, -2.771281,  0.172795,  3.881645, -0.365535,  1.891293,  7.767155, -2.770345,  0.172759,  3.881379, -0.365517
     1205802000,  1.896155,   7.78275, -2.776633,  0.173129,  3.889141, -0.366241,  1.894655,  7.782672, -2.775517,  0.172759,  3.888103, -0.366379
     1205812000,  1.899809,   7.79775, -2.781984,  0.173462,  3.896637, -0.366947,  1.899052,  7.797931,  -2.78069,  0.173276,  3.895345, -0.367241
     1205822000,  1.903464,   7.81275, -2.787336,  0.173796,  3.904133, -0.367652,   1.90319,  7.812672, -2.786121,  0.173793,  3.903621, -0.367241
     1205832000,  1.907118,   7.82775, -2.792687,   0.17413,  3.911628, -0.368358,  1.907069,  7.826897,  -2.79181,  0.173793,  3.910862, -0.368966
     1205842000,  1.910773,   7.84275, -2.798039,  0.174463,  3.919124, -0.369064,  1.911207,  7.841638,   -2.7975,   0.17431,  3.918621, -0.368966
     1205852000,  1.914427,   7.85775,  -2.80339,  0.174797,   3.92662,  -0.36977,  1.915345,  7.857414, -2.803448,  0.174828,  3.926379, -0.369828
     1205862000,  1.918082,   7.87275, -2.808742,  0.175131,  3.934115, -0.370476,  1.919224,   7.87319, -2.809397,  0.175345,  3.933103,  -0.37069
     1205872000,  1.921736,   7.88775, -2.814093,  0.175464,  3.941611, -0.371182,  1.923362,   7.88819, -2.815345,  0.175345,  3.940345,  -0.37069
     1205882000,  1.925391,   7.90275, -2.819445,  0.175798,  3.949107, -0.371888,  1.926724,  7.902931, -2.821034,  0.175862,  3.948621, -0.372414
     1205892000,  1.929045,   7.91775, -2.824796,  0.176132,  3.956602, -0.372593,  1.930862,  7.917931, -2.826466,  0.176379,  3.956379, -0.372414
     1205902000,    1.9327,   7.93275, -2.830148,  0.176465,  3.964098, -0.373299,  1.934224,  7.933448, -2.831897,  0.176379,  3.963103, -0.373276
     1205912000,  1.936354,   7.94775, -2.835499,  0.176799,  3.971594, -0.374005,  1.937586,  7.948448,  -2.83681,  0.176897,  3.970862, -0.374138
     1205922000,  1.940009,   7.96275, -2.840851,  0.177133,  3.979089, -0.374711,  1.940948,  7.962931, -2.841724,  0.177414,  3.979655,    -0.375
     1205932000,  1.943664,   7.97775, -2.846202,  0.177467,  3.986585, -0.375417,   1.94431,  7.977155, -2.846897,  0.177414,  3.986379,    -0.375
     1205942000,  1.947318,   7.99275, -2.851554,    0.1778,  3.994081, -0.376123,  1.947155,  7.991897,  -2.85181,  0.177931,  3.994138, -0.376724
     1205952000,  1.950973,   8.00775, -2.856905,  0.178134,  4.001577, -0.376829,  1.950776,  8.007672, -2.856983,  0.177931,  4.001897, -0.376724
     1205962000,  1.954627,   8.02275, -2.862257,  0.178468,  4.009072, -0.377535,  1.954397,  8.023448, -2.862155,  0.178966,  4.008621, -0.377586
     1205972000,  1.958282,   8.03775, -2.867608,  0.178801,  4.016568,  -0.37824,  1.957759,  8.038448, -2.867328,  0.178966,  4.016897, -0.378448
     1205982000,  1.961936,   8.05275,  -2.87296,  0.179135,  4.024064, -0.378946,  1.961379,  8.052931, -2.873017,  0.178966,  4.024138, -0.378448
     1205992000,  1.965591,   8.06775, -2.878311,  0.179469,  4.031559, -0.379652,  1.965259,  8.067414, -2.878707,  0.179483,  4.032414, -0.380172
     1206002000,  1.969245,   8.08275, -2.883663,  0.179802,  4.039055, -0.380358,  1.968879,  8.082672, -2.884397,      0.18,  4.039655, -0.380172
     1206012000,    1.9729,   8.09775, -2.889014,  0.180136,  4.046551, -0.381064,  1.972759,   8.09819, -2.890086,  0.180517,  4.047414, -0.381034
     1206022000,  1.976554,   8.11275, -2.894366,   0.18047,  4.054046,  -0.38177,  1.976379,   8.11319, -2.895259,  0.180517,  4.055172, -0.381897
     1206032000,  1.980209,   8.12775, -2.899718,  0.180803,  4.061542, -0.382476,      1.98,  8.127931, -2.900431,  0.180517,  4.062931, -0.381897
     1206042000,  1.983863,   8.14275, -2.905069,  0.181137,  4.069038, -0.383182,  1.984138,  8.142672, -2.905603,  0.181034,   4.07069, -0.383621
     1206052000,  1.987518,   8.15775, -2.910421,  0.181471,  4.076534, -0.383887,  1.988017,  8.158448, -2.910776,  0.181552,  4.077931, -0.383621
     1206062000,  1.991172,   8.17275, -2.915772,  0.181804,  4.084029, -0.384593,  1.991897,  8.174224, -2.915431,  0.182069,   4.08569, -0.384483
     1206072000,  1.994827,   8.18775, -2.921124,  0.182138,  4.091525, -0.385299,  1.996034,  8.188966, -2.920345,  0.182069,  4.092414, -0.385345
     1206082000,  1.998482,   8.20275, -2.926475,  0.182472,  4.099021, -0.386005,  1.999655,  8.203707, -2.925259,  0.182586,  4.100172, -0.386207
     1206092000,  2.002136,   8.21775, -2.931827,  0.182805,  4.106516, -0.386711,  2.003276,  8.218448,  -2.93069,  0.182586,  4.108448, -0.386207
     1206102000,  2.005791,   8.23275, -2.937178,  0.183139,  4.114012, -0.387417,  2.006638,  8.234224, -2.936121,  0.183103,   4.11569, -0.387931
     1206112000,  2.009445,   8.24775,  -2.94253,  0.183473,  4.121508, -0.388123,  2.010259,  8.249741, -2.941552,  0.183621,  4.123448, -0.387931
     1206122000,    2.0131,   8.26275, -2.947881,  0.183806,  4.129003, -0.388829,  2.013621,  8.264483, -2.947241,  0.184138,  4.130172, -0.388793
     1206132000,  2.016754,   8.27775, -2.953233,   0.18414,  4.136499, -0.389534,  2.016983,  8.278707, -2.952931,  0.184138,  4.137414, -0.389655
     1206142000,  2.020409,   8.29275, -2.958584,  0.184474,  4.143995,  -0.39024,  2.020603,   8.29319, -2.958879,  0.184655,   4.14569, -0.389655
     1206152000,  2.024063,   8.30775, -2.963936,  0.184807,   4.15149, -0.390946,  2.023707,   8.30819, -2.964828,  0.184655,  4.152414, -0.391379
     1206162000,  2.027718,   8.32275, -2.969287,  0.185141,  4.158986, -0.391652,  2.027328,  8.323448, -2.970517,  0.185172,  4.159655, -0.391379
     1206172000,  2.031372,   8.33775, -2.974639,  0.185475,  4.166482, -0.392358,  2.030948,   8.33819, -2.975948,   0.18569,  4.167414, -0.392241
     1206182000,  2.035027,   8.35275,  -2.97999,  0.185808,  4.173978, -0.393064,  2.034569,  8.352155, -2.981121,  0.186207,  4.174655, -0.393103
     1206192000,  2.038681,   8.36775, -2.985342,  0.186142,  4.181473,  -0.39377,  2.037931,  8.366897, -2.986293,  0.186207,  4.182414, -0.393966
     1206202000,  2.042336,   8.38275, -2.990693,  0.186476,  4.188969, -0.394475,   2.04181,  8.382414, -2.990948,  0.186207,  4.188621, -0.393966
     1206212000,   2.04599,   8.39775, -2.996045,  0.186809,  4.196465, -0.395181,  2.045431,  8.397931, -2.995862,  0.186724,  4.196897,  -0.39569
     1206222000,  2.049645,   8.41275, -3.001396,  0.187143,   4.20396, -0.395887,   2.04931,  8.412931, -3.000776,  0.187241,  4.204655,  -0.39569
     1206232000,    2.0533,   8.42775, -3.006748,  0.187477,  4.211456, -0.396593,   2.05319,  8.427155,  -3.00569,  0.187241,  4.211897, -0.396552
     1206242000,  2.056954,   8.44275, -3.012099,  0.187811,  4.218952, -0.397299,  2.057069,  8.442155, -3.010862,  0.187759,  4.219138, -0.397414
     1206252000,  2.060609,   8.45775, -3.017451,  0.188144,  4.226447, -0.398005,  2.061207,  8.457931, -3.016034,  0.188276,  4.226379, -0.398276
     1206262000,  2.064263,   8.47275, -3.022802,  0.188478,  4.233943, -0.398711,  2.065086,  8.473966, -3.021466,  0.188793,  4.233621, -0.399138
     1206272000,  2.067918,   8.48775, -3.028154,  0.188812,  4.241439, -0.399417,  2.068966,  8.488966, -3.027155,  0.188793,  4.241379,      -0.4
     1206282000,  2.071572,   8.50275, -3.033505,  0.189145,  4.248934, -0.400122,  2.072845,  8.503707, -3.032845,   0.18931,  4.248103,      -0.4
     1206292000,  2.075227,   8.51775, -3.038857,  0.189479,   4.25643, -0.400828,  2.076466,  8.518707, -3.038534,  0.189828,  4.255862, -0.400862
     1206302000,  2.078881,   8.53275, -3.044208,  0.189813,  4.263926, -0.401534,  2.079828,  8.534224, -3.044483,  0.189828,  4.264138, -0.400862
     1206312000,  2.082536,   8.54775,  -3.04956,  0.190146,  4.271422,  -0.40224,   2.08319,  8.549483, -3.049914,  0.189828,  4.271379, -0.401724
     1206322000,   2.08619,   8.56275, -3.054911,   0.19048,  4.278917, -0.402946,   2.08681,  8.563707, -3.055345,  0.190345,  4.278103, -0.402586
     1206332000,  2.089845,   8.57775, -3.060263,  0.190814,  4.286413, -0.403652,  2.090172,  8.577931, -3.060517,  0.190862,  4.285345, -0.403448
     1206342000,  2.093499,   8.59275, -3.065614,  0.191147,  4.293909, -0.404358,  2.093534,  8.592155,  -3.06569,  0.191379,  4.293103, -0.403448
     1206352000,  2.097154,   8.60775, -3.070966,  0.191481,  4.301404, -0.405064,  2.096897,  8.607931, -3.070862,  0.191379,  4.300345, -0.405172
     1206362000,  2.100808,   8.62275, -3.076317,  0.191815,    4.3089, -0.405769,  2.100259,  8.623966, -3.076034,  0.191897,  4.308621, -0.405172
     1206372000,  2.104463,   8.63775, -3.081669,  0.192148,  4.316396, -0.406475,  2.103621,  8.638966, -3.081207,  0.192414,  4.316379, -0.406034
     1206382000,  2.108118,   8.65275,  -3.08702,  0.192482,  4.323891, -0.407181,  2.106983,   8.65319, -3.086638,  0.192414,  4.323103, -0.406897
     1206392000,  2.111772,   8.66775, -3.092372,  0.192816,  4.331387, -0.407887,  2.110603,  8.667672, -3.092586,  0.192931,  4.330345, -0.407759
     1206402000,  2.115427,   8.68275, -3.097724,  0.193149,  4.338883, -0.408593,  2.114483,  8.682931, -3.098534,  0.193448,  4.338103, -0.408621
     1206412000,  2.119081,   8.69775, -3.103075,  0.193483,  4.346379, -0.409299,  2.117845,   8.69819, -3.104483,  0.193448,  4.345862, -0.409483
     1206422000,  2.122736,   8.71275, -3.108427,  0.193817,  4.353874, -0.410005,  2.121983,   8.71319, -3.110431,  0.193966,  4.353621, -0.410345
     1206432000,   2.12639,   8.72775, -3.113778,   0.19415,   4.36137,  -0.41071,  2.126121,  8.727414, -3.116121,  0.193966,  4.361379, -0.411207
     1206442000,  2.130045,   8.74275,  -3.11913,  0.194484,  4.368866, -0.411416,  2.130259,  8.741897,  -3.12181,  0.194483,  4.369138, -0.411207
     1206452000,  2.133699,   8.75775, -3.124481,  0.194818,  4.376361, -0.412122,  2.134655,  8.757414, -3.126983,     0.195,  4.375862, -0.412069
     1206462000,  2.137354,   8.77275, -3.129833,  0.195151,  4.383857, -0.412828,  2.138534,  8.772931, -3.131897,     0.195,  4.383621, -0.412931
     1206472000,  2.141008,   8.78775, -3.135184,  0.195485,  4.391353, -0.413534,  2.142672,  8.787931, -3.136552,  0.195517,  4.391379, -0.413793
     1206482000,  2.144663,   8.80275, -3.140536,  0.195819,  4.398848,  -0.41424,  2.146293,  8.802155, -3.141466,  0.196034,  4.398103, -0.414655
     1206492000,  2.148317,   8.81775, -3.145887,  0.196152,  4.406344, -0.414946,  2.149914,  8.817155, -3.146379,  0.196034,  4.405862, -0.414655
     1206502000,  2.151972,   8.83275, -3.151239,  0.196486,   4.41384, -0.415652,  2.153793,  8.832931, -3.151034,  0.196034,  4.413621, -0.415517
     1206512000,  2.155626,   8.84775,  -3.15659,   0.19682,  4.421335, -0.416357,  2.157414,  8.848707, -3.155948,  0.196552,  4.421379, -0.416379
     1206522000,  2.159281,   8.86275, -3.161942,  0.197153,  4.428831, -0.417063,  2.160517,  8.863707, -3.160862,  0.197069,  4.428621, -0.417241
     1206532000,  2.162936,   8.87775, -3.167293,  0.197487,  4.436327, -0.417769,  2.163621,   8.87819, -3.166034,  0.197069,  4.435345, -0.418103
     1206542000,   2.16659,   8.89275, -3.172645,  0.197821,  4.443823, -0.418475,  2.167241,  8.892672, -3.171466,  0.197586,  4.443621, -0.418966
     1206552000,  2.170245,   8.90775, -3.177996,  0.198155,  4.451318, -0.419181,  2.170603,  8.907672, -3.176897,  0.198103,  4.450862, -0.418966
     1206562000,  2.173899,   8.92275, -3.183348,  0.198488,  4.458814, -0.419887,  2.173707,   8.92319, -3.182328,  0.198103,  4.458621, -0.419828
     1206572000,  2.177554,   8.93775, -3.188699,  0.198822,   4.46631, -0.420593,  2.177069,   8.93819, -3.188276,  0.198621,  4.465862,  -0.42069
     1206582000,  2.181208,   8.95275, -3.194051,  0.199156,  4.473805, -0.421299,  2.180431,  8.952672, -3.193707,  0.199138,  4.473103,  -0.42069
     1206592000,  2.184863,   8.96775, -3.199402,  0.199489,  4.481301, -0.422004,  2.184052,  8.967155, -3.199138,  0.199138,  4.480862, -0.422414
     1206602000,  2.188517,   8.98275, -3.204754,  0.199823,  4.488797,  -0.42271,  2.187414,  8.982414, -3.204569,  0.199655,  4.488621, -0.423276
     1206612000,  2.192172,   8.99775, -3.210105,  0.200157,  4.496292, -0.423416,  2.191293,  8.997931, -3.209741,  0.200172,  4.496379, -0.423276
     1206622000,  2.195826,   9.01275, -3.215457,   0.20049,  4.503788, -0.424122,  2.194914,  9.012672, -3.214655,  0.200172,  4.503103, -0.424138
     1206632000,  2.199481,   9.02775, -3.220808,  0.200824,  4.511284, -0.424828,  2.199052,  9.027155, -3.219828,   0.20069,  4.510862, -0.424138
     1206642000,  2.203135,   9.04275,  -3.22616,  0.201158,  4.518779, -0.425534,  2.202672,  9.041897,    -3.225,  0.201207,  4.518103,    -0.425
     1206652000,   2.20679,   9.05775, -3.231511,  0.201491,  4.526275,  -0.42624,   2.20681,  9.057672, -3.230431,  0.201724,  4.525862, -0.425862
     1206662000,  2.210444,   9.07275, -3.236863,  0.201825,  4.533771, -0.426945,  2.210431,   9.07319, -3.235603,  0.201724,  4.533103, -0.426724
     1206672000,  2.214099,   9.08775, -3.242214,  0.202159,  4.541267, -0.427651,   2.21431,  9.088707, -3.240776,  0.201724,  4.540862, -0.427586
     1206682000,  2.217754,   9.10275, -3.247566,  0.202492,  4.548762, -0.428357,   2.21819,   9.10319, -3.246466,  0.202241,  4.547586, -0.427586
     1206692000,  2.221408,   9.11775, -3.252917,  0.202826,  4.556258, -0.429063,   2.22181,   9.11819, -3.252155,  0.202759,  4.555345, -0.428448
     1206702000,  2.225063,   9.13275, -3.258269,   0.20316,  4.563754, -0.429769,  2.225431,  9.133448, -3.258103,  0.202759,  4.563621,  -0.42931
     1206712000,  2.228717,   9.14775,  -3.26362,  0.203493,  4.571249, -0.430475,  2.229052,  9.148966, -3.264052,  0.203276,  4.571379, -0.430172
     1206722000,  2.232372,   9.16275, -3.268972,  0.203827,  4.578745, -0.431181,  2.232414,  9.163448, -3.269741,  0.203793,  4.579138, -0.431034
     1206732000,  2.236026,   9.17775, -3.274323,  0.204161,  4.586241, -0.431887,  2.236034,  9.177672, -3.275172,  0.203793,  4.585862, -0.431897
     1206742000,  2.239681,   9.19275, -3.279675,  0.204494,  4.593736, -0.432592,  2.239397,  9.192155, -3.280603,   0.20431,  4.593621, -0.432759
     1206752000,  2.243335,   9.20775, -3.285026,  0.204828,  4.601232, -0.433298,  2.242759,  9.207155, -3.285517,  0.204828,  4.601379, -0.433621
     1206762000,   2.24699,   9.22275, -3.290378,  0.205162,  4.608728, -0.434004,  2.246121,  9.222672, -3.290431,  0.204828,  4.609655, -0.433621
     1206772000,  2.250644,   9.23775,  -3.29573,  0.205495,  4.616224,  -0.43471,  2.249483,  9.237414, -3.295345,  0.205345,  4.616897, -0.435345
     1206782000,  2.254299,   9.25275, -3.301081,  0.205829,  4.623719, -0.435416,  2.252845,  9.251638, -3.300259,  0.205862,  4.624655, -0.435345
     1206792000,  2.257953,   9.26775, -3.306433,  0.206163,  4.631215, -0.436122,  2.256207,  9.266121, -3.305431,  0.205862,  4.632414, -0.436207
     1206802000,  2.261608,   9.28275, -3.311784,  0.206496,  4.638711, -0.436828,  2.259828,  9.281121, -3.310862,  0.206379,  4.639655, -0.437069
     1206812000,  2.265262,   9.29775, -3.317136,   0.20683,  4.646206, -0.437534,  2.263707,  9.297155, -3.316293,  0.206897,  4.647414, -0.437069
     1206822000,  2.268917,   9.31275, -3.322487,  0.207164,  4.653702, -0.438239,  2.267328,  9.312414, -3.321724,  0.206897,  4.655172, -0.438793
     1206832000,  2.272572,   9.32775, -3.327839,  0.207498,  4.661198, -0.438945,  2.270948,  9.327414, -3.327672,  0.207414,  4.662931, -0.438793
     1206842000,  2.276226,   9.34275,  -3.33319,  0.207831,  4.668693, -0.439651,  2.275086,  9.342155, -3.333362,  0.207931,  4.669655, -0.439655
     1206852000,  2.279881,   9.35775, -3.338542,  0.208165,  4.676189, -0.440357,  2.278966,  9.357672,  -3.33931,  0.208448,  4.676379, -0.440517
     1206862000,  2.283535,   9.37275, -3.343893,  0.208499,  4.683685, -0.441063,  2.282845,   9.37319,    -3.345,  0.208448,  4.685172, -0.441379
     1206872000,   2.28719,   9.38775, -3.349245,  0.208832,   4.69118, -0.441769,  2.286983,   9.38819, -3.350431,  0.208448,  4.693448, -0.442241
     1206882000,  2.290844,   9.40275, -3.354596,  0.209166,  4.698676, -0.442475,  2.291121,  9.402931, -3.355603,  0.209483,   4.70069, -0.442241
     1206892000,  2.294499,   9.41775, -3.359948,    0.2095,  4.706172, -0.443181,     2.295,  9.417672, -3.360776,  0.209483,  4.707931, -0.443103
     1206902000,  2.298153,   9.43275, -3.365299,  0.209833,  4.713668, -0.443886,  2.298879,  9.433448,  -3.36569,      0.21,  4.714655, -0.443966
     1206912000,  2.301808,   9.44775, -3.370651,  0.210167,  4.721163, -0.444592,    2.3025,  9.449224, -3.370862,  0.210517,  4.722414, -0.444828
     1206922000,  2.305462,   9.46275, -3.376002,  0.210501,  4.728659, -0.445298,  2.306121,  9.464224, -3.375776,  0.210517,  4.730172, -0.444828
     1206932000,  2.309117,   9.47775, -3.381354,  0.210834,  4.736155, -0.446004,  2.309483,  9.478707,  -3.38069,  0.211034,  4.736379, -0.446552
     1206942000,  2.312771,   9.49275, -3.386705,  0.211168,   4.74365,  -0.44671,  2.312845,   9.49319, -3.386379,  0.211552,  4.743103, -0.446552
     1206952000,  2.316426,   9.50775, -3.392057,  0.211502,  4.751146, -0.447416,  2.316207,  9.508448,  -3.39181,  0.211552,  4.751897, -0.447414
     1206962000,   2.32008,   9.52275, -3.397408,  0.211835,  4.758642, -0.448122,  2.319828,  9.524224,   -3.3975,  0.211552,  4.759655, -0.448276
     1206972000,  2.323735,   9.53775,  -3.40276,  0.212169,  4.766137, -0.448827,   2.32319,  9.538966, -3.403448,  0.212069,  4.766897, -0.448276
     1206982000,   2.32739,   9.55275, -3.408111,  0.212503,  4.773633, -0.449533,  2.326293,   9.55319, -3.409138,  0.212586,  4.773621,     -0.45
     1206992000,  2.331044,   9.56775, -3.413463,  0.212836,  4.781129, -0.450239,  2.329914,  9.567414, -3.415086,  0.213103,  4.780862,     -0.45
     1207002000,  2.334699,   9.58275, -3.418814,   0.21317,  4.788624, -0.450945,  2.333793,  9.582672, -3.420776,  0.213103,  4.788621, -0.450862
     1207012000,  2.338353,   9.59775, -3.424166,  0.213504,   4.79612, -0.451651,  2.337414,   9.59819, -3.426207,  0.213621,  4.796379, -0.451724
     1207022000,  2.342008,   9.61275, -3.429517,  0.213837,  4.803616, -0.452357,  2.341293,  9.612672, -3.431379,  0.214138,  4.803621, -0.451724
     1207032000,  2.345662,   9.62775, -3.434869,  0.214171,  4.811112, -0.453063,  2.345172,  9.626897, -3.436552,  0.214138,  4.810862, -0.453448
     1207042000,  2.349317,   9.64275,  -3.44022,  0.214505,  4.818607, -0.453769,  2.349052,  9.641638, -3.441207,  0.214138,  4.818621, -0.453448
     1207052000,  2.352971,   9.65775, -3.445572,  0.214838,  4.826103, -0.454474,   2.35319,  9.657155, -3.446121,  0.214655,  4.825862,  -0.45431
     1207062000,  2.356626,   9.67275, -3.450923,  0.215172,  4.833599,  -0.45518,  2.357328,  9.672931, -3.451034,  0.215172,  4.833621, -0.455172
     1207072000,   2.36028,   9.68775, -3.456275,  0.215506,  4.841094, -0.455886,  2.361466,  9.688448, -3.455948,  0.215172,  4.840862, -0.456034
     1207082000,  2.363935,   9.70275, -3.461626,  0.215839,   4.84859, -0.456592,  2.365345,  9.702931, -3.461121,   0.21569,  4.847586, -0.456034
     1207092000,  2.367589,   9.71775, -3.466978,  0.216173,  4.856086, -0.457298,  2.369483,  9.717672, -3.466552,  0.216207,  4.855345, -0.456897
     1207102000,  2.371244,   9.73275, -3.472329,  0.216507,  4.863581, -0.458004,  2.373103,  9.732931, -3.471983,  0.216207,  4.863103, -0.456897
     1207112000,  2.374898,   9.74775, -3.477681,   0.21684,  4.871077,  -0.45871,  2.376724,  9.748448, -3.477414,  0.216724,  4.870345, -0.457759
     1207122000,  2.378553,   9.76275, -3.483032,  0.217174,  4.878573, -0.459416,  2.380603,   9.76319, -3.483103,  0.217241,  4.877586, -0.458621
     1207132000,  2.382208,   9.77775, -3.488384,  0.217508,  4.886069, -0.460121,  2.383966,  9.777414, -3.488793,  0.217759,  4.884828, -0.459483
     1207142000,  2.385862,   9.79275, -3.493736,  0.217842,  4.893564, -0.460827,  2.387586,  9.792155, -3.494224,  0.217759,  4.892586, -0.460345
     1207152000,  2.389517,   9.80775, -3.499087,  0.218175,   4.90106, -0.461533,   2.39069,  9.807672, -3.499655,  0.218276,  4.900345, -0.461207
     1207162000,  2.393171,   9.82275, -3.504439,  0.218509,  4.908556, -0.462239,  2.394052,  9.823448, -3.504828,  0.218276,  4.907069, -0.462069
     1207172000,  2.396826,   9.83775,  -3.50979,  0.218843,  4.916051, -0.462945,  2.397414,  9.838707, -3.509741,  0.218793,  4.915862, -0.462931
     1207182000,   2.40048,   9.85275, -3.515142,  0.219176,  4.923547, -0.463651,  2.400517,   9.85319, -3.514655,  0.218793,  4.923621, -0.463793
     1207192000,  2.404135,   9.86775, -3.520493,   0.21951,  4.931043, -0.464357,  2.403879,  9.867414, -3.519569,   0.21931,  4.930862, -0.464655
     1207202000,  2.407789,   9.88275, -3.525845,  0.219844,  4.938538, -0.465062,  2.407759,  9.882672, -3.524483,  0.219828,  4.938103, -0.464655
     1207212000,  2.411444,   9.89775, -3.531196,  0.220177,  4.946034, -0.465768,  2.411379,   9.89819, -3.529655,  0.220345,  4.946897, -0.465517
     1207222000,  2.415098,   9.91275, -3.536548,  0.220511,   4.95353, -0.466474,     2.415,  9.913448, -3.535086,  0.220345,  4.954138, -0.466379
     1207232000,  2.418753,   9.92775, -3.541899,  0.220845,  4.961025,  -0.46718,  2.418621,  9.927931, -3.540517,  0.220862,  4.962414, -0.467241
     1207242000,  2.422407,   9.94275, -3.547251,  0.221178,  4.968521, -0.467886,    2.4225,  9.942931, -3.546466,  0.221379,  4.969138, -0.467241
